!!!!SEGMENT: pl-wtm--r-39-n_noskowski-zygmunt-utwor-w-charakterze-marsza.krn
!!!id: 18xx:2107
!!!COM: Noskowski, Zygmunt
!!!OTL: Utwór w charakterze marsza
!!!PDT:
!!!SMS-siglum: PL-Wtm
!!!SMS-shelfmark: R 39/N
!!!NIFC-rismID: 1001101670
!!!URL-scan: http://repozytorium.nifc.pl/skany/pl-wtm-nut--r39n
!!!ONB-nifc:
!!!SMS-variant:
!!!SMS-altvar:
**kern	**dynam	**kern	**dynam	**kern	**dynam	**kern	**dynam	**kern	**dynam	**kern	**dynam	**kern	**dynam	**kern	**dynam	**kern	**dynam	**kern	**dynam	**kern	**dynam	**kern	**dynam	**kern	**dynam	**kern	**dynam	**kern	**dynam	**kern	**dynam	**kern	**dynam	**kern	**dynam	**kern	**dynam	**kern	**dynam
*	*	*	*	*	*	*	*	*	*	*	*	*group1	*	*group1	*	*	*	*	*	*	*	*	*	*	*	*	*	*	*	*	*	*	*	*	*	*	*	*	*
*	*	*	*	*	*	*	*	*	*	*	*	*I"" 4 Corni Es	*	*I"" 4 Corni Es	*	*	*	*	*	*	*	*	*	*	*	*	*	*	*	*	*	*	*	*	*	*	*	*	*
*part20	*part20	*part19	*part19	*part18	*part18	*part17	*part17	*part16	*part16	*part15	*part15	*part14	*part14	*part13	*part13	*part12	*part12	*part11	*part11	*part10	*part10	*part9	*part9	*part8	*part8	*part7	*part7	*part6	*part6	*part5	*part5	*part4	*part4	*part3	*part3	*part2	*part2	*part1	*part1
*staff20	*	*staff19	*	*staff18	*	*staff17	*	*staff16	*	*staff15	*	*staff14	*	*staff13	*	*staff12	*	*staff11	*	*staff10	*	*staff9	*	*staff8	*	*staff7	*	*staff6	*	*staff5	*	*staff4	*	*staff3	*	*staff2	*	*staff1	*
*I"20 Gr. Casſa e Piatti	*	*I"19 Tambour helli	*	*I"18 Trombone basso	*	*I"17 2 Tromboni tenori	*	*I"16 Bassi	*	*I"15 Baritono	*	*I"14	*	*I"13	*	*I"12. 3.Trombe Es	*	*I"11 1. Tromba Es	*	*I"10 2 Cornetti B	*	*I"9 Fagotti	*	*I"8 Bassetto C	*	*I"7 Bassetto F	*	*I"6 2.3 Clarinetti B	*	*I"5 1.Clarinetto B	*	*I"4 Clarinetto Es	*	*I"3. Oboe	*	*I"2. Flauto	*	*I"1. Piccolo	*
*I'20	*	*I'19	*	*I'18	*	*I'17	*	*I'16	*	*I'15	*	*I'14	*	*I'13	*	*I'12	*	*I'11	*	*I'10	*	*I'9	*	*I'8	*	*I'7	*	*I'6	*	*I'5	*	*I'4	*	*I'ob	*	*I'2	*	*I'1	*
*clefF4	*	*clefG2	*	*clefF4	*	*clefF4	*	*clefF4	*	*clefF4	*	*clefG2	*	*clefG2	*	*clefG2	*	*clefG2	*	*clefG2	*	*clefF4	*	*clefG2	*	*clefG2	*	*clefG2	*	*clefG2	*	*clefG2	*	*clefG2	*	*clefG2	*	*clefG2	*
*	*	*	*	*	*	*	*	*ITrd0c0	*	*	*	*ITrd5c9	*	*ITrd5c9	*	*ITrd-2c-3	*	*ITrd-2c-3	*	*ITrd1c2	*	*	*	*ITrd0c0	*	*ITrd4c7	*	*ITrd1c2	*	*ITrd1c2	*	*ITrd-2c-3	*	*	*	*	*	*	*
*k[]	*	*k[]	*	*k[b-e-a-d-]	*	*k[b-e-a-d-]	*	*k[b-e-a-d-]	*	*k[b-e-a-d-]	*	*k[b-e-a-d-]	*	*k[b-e-a-d-]	*	*k[b-e-a-d-]	*	*k[b-e-a-d-]	*	*k[b-e-a-d-]	*	*k[b-e-a-d-]	*	*k[b-e-a-d-]	*	*k[b-e-a-d-]	*	*k[b-e-a-d-]	*	*k[b-e-a-d-]	*	*k[b-e-a-d-]	*	*k[b-e-a-d-]	*	*k[b-e-a-d-]	*	*k[b-e-a-d-]	*
*M4/4	*	*M4/4	*	*M4/4	*	*M4/4	*	*M4/4	*	*M4/4	*	*M4/4	*	*M4/4	*	*M4/4	*	*M4/4	*	*M4/4	*	*M4/4	*	*M4/4	*	*M4/4	*	*M4/4	*	*M4/4	*	*M4/4	*	*M4/4	*	*M4/4	*	*M4/4	*
*met(c)	*	*met(c)	*	*met(c)	*	*met(c)	*	*met(c)	*	*met(c)	*	*met(c)	*	*met(c)	*	*met(c)	*	*met(c)	*	*met(c)	*	*met(c)	*	*met(c)	*	*met(c)	*	*met(c)	*	*met(c)	*	*met(c)	*	*met(c)	*	*met(c)	*	*met(c)	*
*>[A,B,B]	*>[A,B,B]	*>[A,B,B]	*>[A,B,B]	*>[A,B,B]	*>[A,B,B]	*>[A,B,B]	*>[A,B,B]	*>[A,B,B]	*>[A,B,B]	*>[A,B,B]	*>[A,B,B]	*>[A,B,B]	*>[A,B,B]	*>[A,B,B]	*>[A,B,B]	*>[A,B,B]	*>[A,B,B]	*>[A,B,B]	*>[A,B,B]	*>[A,B,B]	*>[A,B,B]	*>[A,B,B]	*>[A,B,B]	*>[A,B,B]	*>[A,B,B]	*>[A,B,B]	*>[A,B,B]	*>[A,B,B]	*>[A,B,B]	*>[A,B,B]	*>[A,B,B]	*>[A,B,B]	*>[A,B,B]	*>[A,B,B]	*>[A,B,B]	*>[A,B,B]	*>[A,B,B]	*>[A,B,B]	*>[A,B,B]
=1	=1	=1	=1	=1	=1	=1	=1	=1	=1	=1	=1	=1	=1	=1	=1	=1	=1	=1	=1	=1	=1	=1	=1	=1	=1	=1	=1	=1	=1	=1	=1	=1	=1	=1	=1	=1	=1	=1	=1
*>A	*>A	*>A	*>A	*>A	*>A	*>A	*>A	*>A	*>A	*>A	*>A	*>A	*>A	*>A	*>A	*>A	*>A	*>A	*>A	*>A	*>A	*>A	*>A	*>A	*>A	*>A	*>A	*>A	*>A	*>A	*>A	*>A	*>A	*>A	*>A	*>A	*>A	*>A	*>A
*	*	*tremolo	*	*	*	*	*	*	*	*	*	*	*	*	*	*	*	*	*	*	*	*	*	*	*	*	*	*	*	*	*	*	*	*	*	*	*	*	*
!	!	!	!LO:DY:rj	!	!	!	!	!	!	!	!LO:DY:rj	!	!	!	!	!	!LO:DY:rj	!	!LO:DY:rj	!	!LO:DY:rj	!	!	!	!	!	!	!	!	!	!	!	!	!	!	!	!	!	!
2r	.	32Rcc\LLL	f	2r	.	2r	.	2r	.	2.E-^^\	f	2r	.	2r	.	2.ee- 2.e-^^/	f	2.ee-^^\	f	2.ee- 2.e-^^\	f	2r	.	2r	.	2r	.	2r	.	2r	.	2r	.	2r	.	2r	.	2r	.
.	.	32Rcc\	.	.	.	.	.	.	.	.	.	.	.	.	.	.	.	.	.	.	.	.	.	.	.	.	.	.	.	.	.	.	.	.	.	.	.	.	.
.	.	32Rcc\	.	.	.	.	.	.	.	.	.	.	.	.	.	.	.	.	.	.	.	.	.	.	.	.	.	.	.	.	.	.	.	.	.	.	.	.	.
.	.	32Rcc\	.	.	.	.	.	.	.	.	.	.	.	.	.	.	.	.	.	.	.	.	.	.	.	.	.	.	.	.	.	.	.	.	.	.	.	.	.
.	.	32Rcc\	.	.	.	.	.	.	.	.	.	.	.	.	.	.	.	.	.	.	.	.	.	.	.	.	.	.	.	.	.	.	.	.	.	.	.	.	.
.	.	32Rcc\	.	.	.	.	.	.	.	.	.	.	.	.	.	.	.	.	.	.	.	.	.	.	.	.	.	.	.	.	.	.	.	.	.	.	.	.	.
.	.	32Rcc\	.	.	.	.	.	.	.	.	.	.	.	.	.	.	.	.	.	.	.	.	.	.	.	.	.	.	.	.	.	.	.	.	.	.	.	.	.
.	.	32Rcc\	.	.	.	.	.	.	.	.	.	.	.	.	.	.	.	.	.	.	.	.	.	.	.	.	.	.	.	.	.	.	.	.	.	.	.	.	.
.	.	32Rcc\	.	.	.	.	.	.	.	.	.	.	.	.	.	.	.	.	.	.	.	.	.	.	.	.	.	.	.	.	.	.	.	.	.	.	.	.	.
.	.	32Rcc\	.	.	.	.	.	.	.	.	.	.	.	.	.	.	.	.	.	.	.	.	.	.	.	.	.	.	.	.	.	.	.	.	.	.	.	.	.
.	.	32Rcc\	.	.	.	.	.	.	.	.	.	.	.	.	.	.	.	.	.	.	.	.	.	.	.	.	.	.	.	.	.	.	.	.	.	.	.	.	.
.	.	32Rcc\	.	.	.	.	.	.	.	.	.	.	.	.	.	.	.	.	.	.	.	.	.	.	.	.	.	.	.	.	.	.	.	.	.	.	.	.	.
.	.	32Rcc\	.	.	.	.	.	.	.	.	.	.	.	.	.	.	.	.	.	.	.	.	.	.	.	.	.	.	.	.	.	.	.	.	.	.	.	.	.
.	.	32Rcc\	.	.	.	.	.	.	.	.	.	.	.	.	.	.	.	.	.	.	.	.	.	.	.	.	.	.	.	.	.	.	.	.	.	.	.	.	.
.	.	32Rcc\	.	.	.	.	.	.	.	.	.	.	.	.	.	.	.	.	.	.	.	.	.	.	.	.	.	.	.	.	.	.	.	.	.	.	.	.	.
.	.	32Rcc\	.	.	.	.	.	.	.	.	.	.	.	.	.	.	.	.	.	.	.	.	.	.	.	.	.	.	.	.	.	.	.	.	.	.	.	.	.
!	!LO:DY:rj	!	!	!	!LO:DY:rj	!	!LO:DY:rj	!	!LO:DY:rj	!	!	!	!LO:DY:rj	!	!LO:DY:rj	!	!	!	!	!	!	!	!LO:DY:rj	!	!LO:DY:rj	!	!LO:DY:rj	!	!LO:DY:rj	!	!LO:DY:rj	!	!LO:DY:rj	!	!LO:DY:rj	!	!LO:DY:rj	!	!LO:DY:rj
4Ra^^/	f	32Rcc\	.	4C^^/	f	4e- 4G^^\	f	4C 4CC^^/	f	.	.	4c 4G^^/	f	4g 4e-^^\	f	.	.	.	.	.	.	4C 4CC^^/	f	4g^^/	f	4e-^^\	f	4cc 4g^^\	f	4ee-^^\	f	4eee-^^\	f	4gg 4ee-\	f	4eee-^^\	f	4eee-^^\	f
.	.	32Rcc\	.	.	.	.	.	.	.	.	.	.	.	.	.	.	.	.	.	.	.	.	.	.	.	.	.	.	.	.	.	.	.	.	.	.	.	.	.
.	.	32Rcc\	.	.	.	.	.	.	.	.	.	.	.	.	.	.	.	.	.	.	.	.	.	.	.	.	.	.	.	.	.	.	.	.	.	.	.	.	.
.	.	32Rcc\	.	.	.	.	.	.	.	.	.	.	.	.	.	.	.	.	.	.	.	.	.	.	.	.	.	.	.	.	.	.	.	.	.	.	.	.	.
.	.	32Rcc\	.	.	.	.	.	.	.	.	.	.	.	.	.	.	.	.	.	.	.	.	.	.	.	.	.	.	.	.	.	.	.	.	.	.	.	.	.
.	.	32Rcc\	.	.	.	.	.	.	.	.	.	.	.	.	.	.	.	.	.	.	.	.	.	.	.	.	.	.	.	.	.	.	.	.	.	.	.	.	.
.	.	32Rcc\	.	.	.	.	.	.	.	.	.	.	.	.	.	.	.	.	.	.	.	.	.	.	.	.	.	.	.	.	.	.	.	.	.	.	.	.	.
.	.	32Rcc\	.	.	.	.	.	.	.	.	.	.	.	.	.	.	.	.	.	.	.	.	.	.	.	.	.	.	.	.	.	.	.	.	.	.	.	.	.
4r	.	32Rcc\	.	4r	.	4r	.	4r	.	8.E-\L	.	4r	.	4r	.	8.ee-L 8.e-/	.	8.ee-\L	.	8.ee-L 8.e-\	.	4r	.	4r	.	4r	.	4r	.	4r	.	4r	.	4r	.	4r	.	4r	.
.	.	32Rcc\	.	.	.	.	.	.	.	.	.	.	.	.	.	.	.	.	.	.	.	.	.	.	.	.	.	.	.	.	.	.	.	.	.	.	.	.	.
.	.	32Rcc\	.	.	.	.	.	.	.	.	.	.	.	.	.	.	.	.	.	.	.	.	.	.	.	.	.	.	.	.	.	.	.	.	.	.	.	.	.
.	.	32Rcc\	.	.	.	.	.	.	.	.	.	.	.	.	.	.	.	.	.	.	.	.	.	.	.	.	.	.	.	.	.	.	.	.	.	.	.	.	.
.	.	32Rcc\	.	.	.	.	.	.	.	.	.	.	.	.	.	.	.	.	.	.	.	.	.	.	.	.	.	.	.	.	.	.	.	.	.	.	.	.	.
.	.	32Rcc\	.	.	.	.	.	.	.	.	.	.	.	.	.	.	.	.	.	.	.	.	.	.	.	.	.	.	.	.	.	.	.	.	.	.	.	.	.
.	.	32Rcc\	.	.	.	.	.	.	.	16E-\Jk	.	.	.	.	.	16ee-Jk 16e-/	.	16ee-\Jk	.	16ee-Jk 16e-\	.	.	.	.	.	.	.	.	.	.	.	.	.	.	.	.	.	.	.
.	.	32Rcc\JJJ	.	.	.	.	.	.	.	.	.	.	.	.	.	.	.	.	.	.	.	.	.	.	.	.	.	.	.	.	.	.	.	.	.	.	.	.	.
=2	=2	=2	=2	=2	=2	=2	=2	=2	=2	=2	=2	=2	=2	=2	=2	=2	=2	=2	=2	=2	=2	=2	=2	=2	=2	=2	=2	=2	=2	=2	=2	=2	=2	=2	=2	=2	=2	=2	=2
*rep	*	*	*	*	*	*	*	*	*	*rep	*	*	*	*	*	*rep	*	*rep	*	*rep	*	*	*	*	*	*	*	*	*	*	*	*	*	*	*	*rep	*	*rep	*
*	*	*	*	*	*	*	*	*	*	*	*	*	*	*	*	*	*	*	*	*	*	*^	*	*	*	*	*	*	*	*	*	*	*	*	*	*	*	*	*
!	!	!	!	!	!	!	!	!	!	!	!	!	!	!	!	!	!	!	!	!LO:TX:a:t=P:problem:górny głos dopisany ołówkiem z caudami w górę	!	!	!	!	!	!	!	!	!	!	!	!	!	!	!	!	!	!	!	!
2r	.	32Rcc\LLL	.	2r	.	2r	.	2r	.	2.E-^^\	.	2r	.	2r	.	2.ee- 2.e-^^/	.	2.ee-^^\	.	2.ee- 2.e-^^\	.	2r	2ryy	.	2r	.	2r	.	2r	.	2r	.	2r	.	2r	.	2r	.	2r	.
.	.	32Rcc\	.	.	.	.	.	.	.	.	.	.	.	.	.	.	.	.	.	.	.	.	.	.	.	.	.	.	.	.	.	.	.	.	.	.	.	.	.	.
.	.	32Rcc\	.	.	.	.	.	.	.	.	.	.	.	.	.	.	.	.	.	.	.	.	.	.	.	.	.	.	.	.	.	.	.	.	.	.	.	.	.	.
.	.	32Rcc\	.	.	.	.	.	.	.	.	.	.	.	.	.	.	.	.	.	.	.	.	.	.	.	.	.	.	.	.	.	.	.	.	.	.	.	.	.	.
.	.	32Rcc\	.	.	.	.	.	.	.	.	.	.	.	.	.	.	.	.	.	.	.	.	.	.	.	.	.	.	.	.	.	.	.	.	.	.	.	.	.	.
.	.	32Rcc\	.	.	.	.	.	.	.	.	.	.	.	.	.	.	.	.	.	.	.	.	.	.	.	.	.	.	.	.	.	.	.	.	.	.	.	.	.	.
.	.	32Rcc\	.	.	.	.	.	.	.	.	.	.	.	.	.	.	.	.	.	.	.	.	.	.	.	.	.	.	.	.	.	.	.	.	.	.	.	.	.	.
.	.	32Rcc\	.	.	.	.	.	.	.	.	.	.	.	.	.	.	.	.	.	.	.	.	.	.	.	.	.	.	.	.	.	.	.	.	.	.	.	.	.	.
.	.	32Rcc\	.	.	.	.	.	.	.	.	.	.	.	.	.	.	.	.	.	.	.	.	.	.	.	.	.	.	.	.	.	.	.	.	.	.	.	.	.	.
.	.	32Rcc\	.	.	.	.	.	.	.	.	.	.	.	.	.	.	.	.	.	.	.	.	.	.	.	.	.	.	.	.	.	.	.	.	.	.	.	.	.	.
.	.	32Rcc\	.	.	.	.	.	.	.	.	.	.	.	.	.	.	.	.	.	.	.	.	.	.	.	.	.	.	.	.	.	.	.	.	.	.	.	.	.	.
.	.	32Rcc\	.	.	.	.	.	.	.	.	.	.	.	.	.	.	.	.	.	.	.	.	.	.	.	.	.	.	.	.	.	.	.	.	.	.	.	.	.	.
.	.	32Rcc\	.	.	.	.	.	.	.	.	.	.	.	.	.	.	.	.	.	.	.	.	.	.	.	.	.	.	.	.	.	.	.	.	.	.	.	.	.	.
.	.	32Rcc\	.	.	.	.	.	.	.	.	.	.	.	.	.	.	.	.	.	.	.	.	.	.	.	.	.	.	.	.	.	.	.	.	.	.	.	.	.	.
.	.	32Rcc\	.	.	.	.	.	.	.	.	.	.	.	.	.	.	.	.	.	.	.	.	.	.	.	.	.	.	.	.	.	.	.	.	.	.	.	.	.	.
.	.	32Rcc\	.	.	.	.	.	.	.	.	.	.	.	.	.	.	.	.	.	.	.	.	.	.	.	.	.	.	.	.	.	.	.	.	.	.	.	.	.	.
4Ra^^/	.	32Rcc\	.	4AA-^^/	.	4e- 4F^^\	.	4AA- 4AAA-^^/	.	.	.	4c 4F^^/	.	4f 4e-^^\	.	.	.	.	.	.	.	4AA-^^/	4AA-\	.	4ee-^^\	.	4f^^\	.	4ee- 4cc^^\	.	4ff^^\	.	4ccc^^\	.	4ff 4ee-^^\	.	4eee-^^\	.	4eee-^^\	.
.	.	32Rcc\	.	.	.	.	.	.	.	.	.	.	.	.	.	.	.	.	.	.	.	.	.	.	.	.	.	.	.	.	.	.	.	.	.	.	.	.	.	.
.	.	32Rcc\	.	.	.	.	.	.	.	.	.	.	.	.	.	.	.	.	.	.	.	.	.	.	.	.	.	.	.	.	.	.	.	.	.	.	.	.	.	.
.	.	32Rcc\	.	.	.	.	.	.	.	.	.	.	.	.	.	.	.	.	.	.	.	.	.	.	.	.	.	.	.	.	.	.	.	.	.	.	.	.	.	.
.	.	32Rcc\	.	.	.	.	.	.	.	.	.	.	.	.	.	.	.	.	.	.	.	.	.	.	.	.	.	.	.	.	.	.	.	.	.	.	.	.	.	.
.	.	32Rcc\	.	.	.	.	.	.	.	.	.	.	.	.	.	.	.	.	.	.	.	.	.	.	.	.	.	.	.	.	.	.	.	.	.	.	.	.	.	.
.	.	32Rcc\	.	.	.	.	.	.	.	.	.	.	.	.	.	.	.	.	.	.	.	.	.	.	.	.	.	.	.	.	.	.	.	.	.	.	.	.	.	.
.	.	32Rcc\	.	.	.	.	.	.	.	.	.	.	.	.	.	.	.	.	.	.	.	.	.	.	.	.	.	.	.	.	.	.	.	.	.	.	.	.	.	.
4r	.	32Rcc\	.	4r	.	4r	.	4r	.	8.E-\L	.	4r	.	4r	.	8.ee-L 8.e-/	.	8.ee-\L	.	8.ee-L 8.e-\	.	4r	4ryy	.	4r	.	4r	.	4r	.	4r	.	4r	.	4r	.	4r	.	4r	.
.	.	32Rcc\	.	.	.	.	.	.	.	.	.	.	.	.	.	.	.	.	.	.	.	.	.	.	.	.	.	.	.	.	.	.	.	.	.	.	.	.	.	.
.	.	32Rcc\	.	.	.	.	.	.	.	.	.	.	.	.	.	.	.	.	.	.	.	.	.	.	.	.	.	.	.	.	.	.	.	.	.	.	.	.	.	.
.	.	32Rcc\	.	.	.	.	.	.	.	.	.	.	.	.	.	.	.	.	.	.	.	.	.	.	.	.	.	.	.	.	.	.	.	.	.	.	.	.	.	.
.	.	32Rcc\	.	.	.	.	.	.	.	.	.	.	.	.	.	.	.	.	.	.	.	.	.	.	.	.	.	.	.	.	.	.	.	.	.	.	.	.	.	.
.	.	32Rcc\	.	.	.	.	.	.	.	.	.	.	.	.	.	.	.	.	.	.	.	.	.	.	.	.	.	.	.	.	.	.	.	.	.	.	.	.	.	.
.	.	32Rcc\	.	.	.	.	.	.	.	16E-\Jk	.	.	.	.	.	16ee-Jk 16e-/	.	16ee-\Jk	.	16ee-Jk 16e-\	.	.	.	.	.	.	.	.	.	.	.	.	.	.	.	.	.	.	.	.
.	.	32Rcc\JJJ	.	.	.	.	.	.	.	.	.	.	.	.	.	.	.	.	.	.	.	.	.	.	.	.	.	.	.	.	.	.	.	.	.	.	.	.	.	.
*	*	*	*	*	*	*	*	*	*	*	*	*	*	*	*	*	*	*	*	*	*	*v	*v	*	*	*	*	*	*	*	*	*	*	*	*	*	*	*	*	*
*Xrep	*	*	*	*	*	*	*	*	*	*Xrep	*	*	*	*	*	*Xrep	*	*Xrep	*	*Xrep	*	*	*	*	*	*	*	*	*	*	*	*	*	*	*	*Xrep	*	*Xrep	*
=3	=3	=3	=3	=3	=3	=3	=3	=3	=3	=3	=3	=3	=3	=3	=3	=3	=3	=3	=3	=3	=3	=3	=3	=3	=3	=3	=3	=3	=3	=3	=3	=3	=3	=3	=3	=3	=3	=3	=3
*rep	*	*	*	*	*	*	*	*	*	*	*	*	*	*	*	*	*	*	*	*	*	*	*	*	*	*	*	*	*	*	*	*	*	*	*	*	*	*rep	*
2r	.	32Rcc\LLL	.	2r	.	2r	.	2r	.	2.E-^^\	.	2r	.	2r	.	2.ee- 2.e-^^/	.	2.ee-^^\	.	2.ee- 2.e-^^\	.	2r	.	2r	.	2r	.	2r	.	2r	.	2r	.	2r	.	2r	.	2r	.
.	.	32Rcc\	.	.	.	.	.	.	.	.	.	.	.	.	.	.	.	.	.	.	.	.	.	.	.	.	.	.	.	.	.	.	.	.	.	.	.	.	.
.	.	32Rcc\	.	.	.	.	.	.	.	.	.	.	.	.	.	.	.	.	.	.	.	.	.	.	.	.	.	.	.	.	.	.	.	.	.	.	.	.	.
.	.	32Rcc\	.	.	.	.	.	.	.	.	.	.	.	.	.	.	.	.	.	.	.	.	.	.	.	.	.	.	.	.	.	.	.	.	.	.	.	.	.
.	.	32Rcc\	.	.	.	.	.	.	.	.	.	.	.	.	.	.	.	.	.	.	.	.	.	.	.	.	.	.	.	.	.	.	.	.	.	.	.	.	.
.	.	32Rcc\	.	.	.	.	.	.	.	.	.	.	.	.	.	.	.	.	.	.	.	.	.	.	.	.	.	.	.	.	.	.	.	.	.	.	.	.	.
.	.	32Rcc\	.	.	.	.	.	.	.	.	.	.	.	.	.	.	.	.	.	.	.	.	.	.	.	.	.	.	.	.	.	.	.	.	.	.	.	.	.
.	.	32Rcc\	.	.	.	.	.	.	.	.	.	.	.	.	.	.	.	.	.	.	.	.	.	.	.	.	.	.	.	.	.	.	.	.	.	.	.	.	.
.	.	32Rcc\	.	.	.	.	.	.	.	.	.	.	.	.	.	.	.	.	.	.	.	.	.	.	.	.	.	.	.	.	.	.	.	.	.	.	.	.	.
.	.	32Rcc\	.	.	.	.	.	.	.	.	.	.	.	.	.	.	.	.	.	.	.	.	.	.	.	.	.	.	.	.	.	.	.	.	.	.	.	.	.
.	.	32Rcc\	.	.	.	.	.	.	.	.	.	.	.	.	.	.	.	.	.	.	.	.	.	.	.	.	.	.	.	.	.	.	.	.	.	.	.	.	.
.	.	32Rcc\	.	.	.	.	.	.	.	.	.	.	.	.	.	.	.	.	.	.	.	.	.	.	.	.	.	.	.	.	.	.	.	.	.	.	.	.	.
.	.	32Rcc\	.	.	.	.	.	.	.	.	.	.	.	.	.	.	.	.	.	.	.	.	.	.	.	.	.	.	.	.	.	.	.	.	.	.	.	.	.
.	.	32Rcc\	.	.	.	.	.	.	.	.	.	.	.	.	.	.	.	.	.	.	.	.	.	.	.	.	.	.	.	.	.	.	.	.	.	.	.	.	.
.	.	32Rcc\	.	.	.	.	.	.	.	.	.	.	.	.	.	.	.	.	.	.	.	.	.	.	.	.	.	.	.	.	.	.	.	.	.	.	.	.	.
.	.	32Rcc\	.	.	.	.	.	.	.	.	.	.	.	.	.	.	.	.	.	.	.	.	.	.	.	.	.	.	.	.	.	.	.	.	.	.	.	.	.
4Ra^^/	.	32Rcc\	.	4EE-^^/	.	4e- 4F^^\	.	4E- 4EE-^^/	.	.	.	4B- 4G/	.	4g 4e-^^\	.	.	.	.	.	.	.	4E- 4EE-^^/	.	4g^^/	.	4e-^^\	.	4b- 4g^^/	.	4ee-^^\	.	4bb-\	.	4gg 4ee-\	.	4eee-\	.	4eee-^^\	.
.	.	32Rcc\	.	.	.	.	.	.	.	.	.	.	.	.	.	.	.	.	.	.	.	.	.	.	.	.	.	.	.	.	.	.	.	.	.	.	.	.	.
.	.	32Rcc\	.	.	.	.	.	.	.	.	.	.	.	.	.	.	.	.	.	.	.	.	.	.	.	.	.	.	.	.	.	.	.	.	.	.	.	.	.
.	.	32Rcc\	.	.	.	.	.	.	.	.	.	.	.	.	.	.	.	.	.	.	.	.	.	.	.	.	.	.	.	.	.	.	.	.	.	.	.	.	.
.	.	32Rcc\	.	.	.	.	.	.	.	.	.	.	.	.	.	.	.	.	.	.	.	.	.	.	.	.	.	.	.	.	.	.	.	.	.	.	.	.	.
.	.	32Rcc\	.	.	.	.	.	.	.	.	.	.	.	.	.	.	.	.	.	.	.	.	.	.	.	.	.	.	.	.	.	.	.	.	.	.	.	.	.
.	.	32Rcc\	.	.	.	.	.	.	.	.	.	.	.	.	.	.	.	.	.	.	.	.	.	.	.	.	.	.	.	.	.	.	.	.	.	.	.	.	.
.	.	32Rcc\	.	.	.	.	.	.	.	.	.	.	.	.	.	.	.	.	.	.	.	.	.	.	.	.	.	.	.	.	.	.	.	.	.	.	.	.	.
4r	.	32Rcc\	.	8.BB-/L	.	8.d-L 8.A-\	.	8.BB-L 8.BBB-/	.	8.A-\L	.	8.A-L 8.F/	.	8.fL 8.d-\	.	8.dd-L 8.a-/	.	8.ff\L	.	8.ffL 8.f\	.	4r	.	8.a-/L	.	8.f\L	.	8.dd-L 8.a-\	.	8.ff\L	.	8.ddd-\L	.	8.ffL 8.dd-\	.	8.fff\L	.	4r	.
.	.	32Rcc\	.	.	.	.	.	.	.	.	.	.	.	.	.	.	.	.	.	.	.	.	.	.	.	.	.	.	.	.	.	.	.	.	.	.	.	.	.
.	.	32Rcc\	.	.	.	.	.	.	.	.	.	.	.	.	.	.	.	.	.	.	.	.	.	.	.	.	.	.	.	.	.	.	.	.	.	.	.	.	.
.	.	32Rcc\	.	.	.	.	.	.	.	.	.	.	.	.	.	.	.	.	.	.	.	.	.	.	.	.	.	.	.	.	.	.	.	.	.	.	.	.	.
.	.	32Rcc\	.	.	.	.	.	.	.	.	.	.	.	.	.	.	.	.	.	.	.	.	.	.	.	.	.	.	.	.	.	.	.	.	.	.	.	.	.
.	.	32Rcc\	.	.	.	.	.	.	.	.	.	.	.	.	.	.	.	.	.	.	.	.	.	.	.	.	.	.	.	.	.	.	.	.	.	.	.	.	.
.	.	32Rcc\	.	16BB-/Jk	.	16d-Jk 16A-\	.	16BB-Jk 16BBB-/	.	16A-\Jk	.	16A-Jk 16F/	.	16fJk 16d-\	.	16dd-Jk 16a-/	.	16ff\Jk	.	16ffJk 16f\	.	.	.	16a-/Jk	.	16f\Jk	.	16dd-Jk 16a-\	.	16ff\Jk	.	16ddd-\Jk	.	16ffJk 16dd-\	.	16fff\Jk	.	.	.
.	.	32Rcc\JJJ	.	.	.	.	.	.	.	.	.	.	.	.	.	.	.	.	.	.	.	.	.	.	.	.	.	.	.	.	.	.	.	.	.	.	.	.	.
*Xrep	*	*	*	*	*	*	*	*	*	*	*	*	*	*	*	*	*	*	*	*	*	*	*	*	*	*	*	*	*	*	*	*	*	*	*	*	*	*Xrep	*
=4	=4	=4	=4	=4	=4	=4	=4	=4	=4	=4	=4	=4	=4	=4	=4	=4	=4	=4	=4	=4	=4	=4	=4	=4	=4	=4	=4	=4	=4	=4	=4	=4	=4	=4	=4	=4	=4	=4	=4
*	*	*	*	*	*	*	*	*	*	*	*	*^	*	*^	*	*	*	*	*	*^	*	*	*	*	*	*	*	*^	*	*	*	*	*	*^	*	*	*	*	*
4Ra/	.	32Rcc\LLL	.	4E-\	.	4d- 4G\	.	4E- 4EE-/	.	4G\	.	4G/	2.ryy	.	4g 4d-\	2.ryy	.	4dd- 4g/	.	4gg\	.	4gg 4g\	2.ryy	.	4E- 4EE-/	.	4g/	.	4g\	.	4dd- 4g\	2.ryy	.	4gg\	.	4ddd-\	.	4gg 4dd-\	2.ryy	.	4ggg\	.	2eee-TT\	.
.	.	32Rcc\	.	.	.	.	.	.	.	.	.	.	.	.	.	.	.	.	.	.	.	.	.	.	.	.	.	.	.	.	.	.	.	.	.	.	.	.	.	.	.	.	.	.
.	.	32Rcc\	.	.	.	.	.	.	.	.	.	.	.	.	.	.	.	.	.	.	.	.	.	.	.	.	.	.	.	.	.	.	.	.	.	.	.	.	.	.	.	.	.	.
.	.	32Rcc\	.	.	.	.	.	.	.	.	.	.	.	.	.	.	.	.	.	.	.	.	.	.	.	.	.	.	.	.	.	.	.	.	.	.	.	.	.	.	.	.	.	.
.	.	32Rcc\	.	.	.	.	.	.	.	.	.	.	.	.	.	.	.	.	.	.	.	.	.	.	.	.	.	.	.	.	.	.	.	.	.	.	.	.	.	.	.	.	.	.
.	.	32Rcc\	.	.	.	.	.	.	.	.	.	.	.	.	.	.	.	.	.	.	.	.	.	.	.	.	.	.	.	.	.	.	.	.	.	.	.	.	.	.	.	.	.	.
.	.	32Rcc\	.	.	.	.	.	.	.	.	.	.	.	.	.	.	.	.	.	.	.	.	.	.	.	.	.	.	.	.	.	.	.	.	.	.	.	.	.	.	.	.	.	.
.	.	32Rcc\	.	.	.	.	.	.	.	.	.	.	.	.	.	.	.	.	.	.	.	.	.	.	.	.	.	.	.	.	.	.	.	.	.	.	.	.	.	.	.	.	.	.
4r	.	32Rcc\	.	4E-\	.	4d- 4A-\	.	4E- 4EE-/	.	4A-\	.	4A- 4F/	.	.	4f 4d-\	.	.	4dd- 4a-/	.	4ff\	.	4ff 4f\	.	.	4E- 4EE-/	.	4a-/	.	4f\	.	4dd- 4a-\	.	.	4ff\	.	4ddd-\	.	4ff 4dd-\	.	.	4fff\	.	.	.
.	.	32Rcc\	.	.	.	.	.	.	.	.	.	.	.	.	.	.	.	.	.	.	.	.	.	.	.	.	.	.	.	.	.	.	.	.	.	.	.	.	.	.	.	.	.	.
.	.	32Rcc\	.	.	.	.	.	.	.	.	.	.	.	.	.	.	.	.	.	.	.	.	.	.	.	.	.	.	.	.	.	.	.	.	.	.	.	.	.	.	.	.	.	.
.	.	32Rcc\	.	.	.	.	.	.	.	.	.	.	.	.	.	.	.	.	.	.	.	.	.	.	.	.	.	.	.	.	.	.	.	.	.	.	.	.	.	.	.	.	.	.
.	.	32Rcc\	.	.	.	.	.	.	.	.	.	.	.	.	.	.	.	.	.	.	.	.	.	.	.	.	.	.	.	.	.	.	.	.	.	.	.	.	.	.	.	.	.	.
.	.	32Rcc\	.	.	.	.	.	.	.	.	.	.	.	.	.	.	.	.	.	.	.	.	.	.	.	.	.	.	.	.	.	.	.	.	.	.	.	.	.	.	.	.	.	.
.	.	32Rcc\	.	.	.	.	.	.	.	.	.	.	.	.	.	.	.	.	.	.	.	.	.	.	.	.	.	.	.	.	.	.	.	.	.	.	.	.	.	.	.	.	.	.
.	.	32Rcc\JJJ	.	.	.	.	.	.	.	.	.	.	.	.	.	.	.	.	.	.	.	.	.	.	.	.	.	.	.	.	.	.	.	.	.	.	.	.	.	.	.	.	.	.
4r;	.	8Rcc\	.	8E-\	.	8d- 8G\	.	8E- 8EE-/	.	8G\	.	8B- 8G/	.	.	8e- 8d-\	.	.	8dd- 8g/	.	8ee-\	.	8ee- 8e-\	.	.	8E- 8EE-/	.	8g/	.	8e-\	.	8dd- 8g\	.	.	8ee-\	.	8ddd-\	.	8ee- 8dd-\	.	.	8eee-\	.	8eee-\	.
.	.	8r;	.	8r;	.	8r;	.	8r;	.	8r;	.	8r;	.	.	8r;	.	.	8r;	.	8r;	.	8r;	.	.	8r;	.	8r;	.	8r;	.	8r;	.	.	8r;	.	8r;	.	8r;	.	.	8r;	.	8r;	.
4r	.	4r	.	4r	.	4r	.	4r	.	8C/L	.	8c/L	8c\L	.	8c/L	8c\L	.	4r	.	4r	.	8c/L	8c\L	.	4r	.	8c/L	.	8c/L	.	8cc/L	8cc\L	.	8cc\L	.	8ccc\L	.	8dd-/L	8dd-\L	.	8ccc\L	.	4r	.
.	.	.	.	.	.	.	.	.	.	8E-/J	.	8e-/J	8e-\J	.	8e-/J	8e-\J	.	.	.	.	.	8e-/J	8e-\J	.	.	.	8e-/J	.	8e-/J	.	8ee-/J	8ee-\J	.	8ee-\J	.	8eee-\J	.	8ee-/J	8ee-\J	.	8eee-\J	.	.	.
*	*	*	*	*	*	*	*	*	*	*	*	*	*	*	*	*	*	*	*	*	*	*	*	*	*	*	*	*	*	*	*v	*v	*	*	*	*	*	*	*	*	*	*	*	*
=5	=5	=5	=5	=5	=5	=5	=5	=5	=5	=5	=5	=5	=5	=5	=5	=5	=5	=5	=5	=5	=5	=5	=5	=5	=5	=5	=5	=5	=5	=5	=5	=5	=5	=5	=5	=5	=5	=5	=5	=5	=5	=5	=5
*	*	*	*	*	*	*	*	*	*	*	*	*	*	*	*	*	*	*^	*	*	*	*	*	*	*^	*	*	*	*	*	*	*	*	*	*	*	*	*	*	*	*	*	*
4Ra/	.	32Rcc\LLL	.	2C/	.	2e- 2A-\	.	2C 2CC/	.	2A-\	.	2A-/	2A-\	.	2e-/	2e-\	.	2e-/	2e-\	.	(4.a-/	.	(4.a-/	(4.a-\	.	2C/	2C\	.	(4e-/	.	4.a-\	.	2ee- 2e-/	.	(4.aa-\	.	(4.aa-\	.	2ee-/	2ee-\	.	(4.aa-\	.	(4.aa-\	.
.	.	32Rcc\	.	.	.	.	.	.	.	.	.	.	.	.	.	.	.	.	.	.	.	.	.	.	.	.	.	.	.	.	.	.	.	.	.	.	.	.	.	.	.	.	.	.	.
.	.	32Rcc\	.	.	.	.	.	.	.	.	.	.	.	.	.	.	.	.	.	.	.	.	.	.	.	.	.	.	.	.	.	.	.	.	.	.	.	.	.	.	.	.	.	.	.
.	.	32Rcc\	.	.	.	.	.	.	.	.	.	.	.	.	.	.	.	.	.	.	.	.	.	.	.	.	.	.	.	.	.	.	.	.	.	.	.	.	.	.	.	.	.	.	.
.	.	32Rcc\	.	.	.	.	.	.	.	.	.	.	.	.	.	.	.	.	.	.	.	.	.	.	.	.	.	.	.	.	.	.	.	.	.	.	.	.	.	.	.	.	.	.	.
.	.	32Rcc\	.	.	.	.	.	.	.	.	.	.	.	.	.	.	.	.	.	.	.	.	.	.	.	.	.	.	.	.	.	.	.	.	.	.	.	.	.	.	.	.	.	.	.
.	.	32Rcc\	.	.	.	.	.	.	.	.	.	.	.	.	.	.	.	.	.	.	.	.	.	.	.	.	.	.	.	.	.	.	.	.	.	.	.	.	.	.	.	.	.	.	.
.	.	32Rcc\	.	.	.	.	.	.	.	.	.	.	.	.	.	.	.	.	.	.	.	.	.	.	.	.	.	.	.	.	.	.	.	.	.	.	.	.	.	.	.	.	.	.	.
4r	.	32Rcc\	.	.	.	.	.	.	.	.	.	.	.	.	.	.	.	.	.	.	.	.	.	.	.	.	.	.	4ee-\)	.	.	.	.	.	.	.	.	.	.	.	.	.	.	.	.
.	.	32Rcc\	.	.	.	.	.	.	.	.	.	.	.	.	.	.	.	.	.	.	.	.	.	.	.	.	.	.	.	.	.	.	.	.	.	.	.	.	.	.	.	.	.	.	.
.	.	32Rcc\	.	.	.	.	.	.	.	.	.	.	.	.	.	.	.	.	.	.	.	.	.	.	.	.	.	.	.	.	.	.	.	.	.	.	.	.	.	.	.	.	.	.	.
.	.	32Rcc\JJJ	.	.	.	.	.	.	.	.	.	.	.	.	.	.	.	.	.	.	.	.	.	.	.	.	.	.	.	.	.	.	.	.	.	.	.	.	.	.	.	.	.	.	.
*	*	*Xtremolo	*	*	*	*	*	*	*	*	*	*	*	*	*	*	*	*	*	*	*	*	*	*	*	*	*	*	*	*	*	*	*	*	*	*	*	*	*	*	*	*	*	*	*
.	.	16Rcc\LL	.	.	.	.	.	.	.	.	.	.	.	.	.	.	.	.	.	.	8b-/)	.	8b-/)	8b-\)	.	.	.	.	.	.	8b-\	.	.	.	8bb-\)	.	8bb-\)	.	.	.	.	8bb-\)	.	8bb-\)	.
.	.	16Rcc\JJ	.	.	.	.	.	.	.	.	.	.	.	.	.	.	.	.	.	.	.	.	.	.	.	.	.	.	.	.	.	.	.	.	.	.	.	.	.	.	.	.	.	.	.
4r	.	8Rcc\	.	4BB-/	.	4d- 4B-\	.	4BB- 4BBB-/	.	4B-\	.	4B- 4D-/	2ryy	.	4d- 4B-/	2ryy	.	4d- 4B-/	2ryy	.	4g/	.	4g/	4g\	.	4BB-/	4BB-\	.	4dd-\	.	4g\	.	4dd- 4b-\	.	4gg\	.	4gg\	.	4dd- 4b-\	2ryy	.	4gg\	.	4gg\	.
.	.	8r	.	.	.	.	.	.	.	.	.	.	.	.	.	.	.	.	.	.	.	.	.	.	.	.	.	.	.	.	.	.	.	.	.	.	.	.	.	.	.	.	.	.	.
.	.	8qRcc/	.	.	.	.	.	.	.	.	.	.	.	.	.	.	.	.	.	.	.	.	.	.	.	.	.	.	.	.	.	.	.	.	.	.	.	.	.	.	.	.	.	.	.
4Ra/	.	8Rcc\	.	4AA-/	.	4c 4E-\	.	4AA- 4AAA-/	.	4E-\	.	4A- 4E-/	.	.	4e- 4c/	.	.	4e- 4c/	.	.	4a-/	.	4a-/	4a-\	.	4AA-/	4AA-\	.	4cc\	.	4a-\	.	4ee- 4cc\	.	4aa-\	.	4aa-\	.	4ee- 4cc\	.	.	4aa-\	.	4aa-\	.
.	.	8r	.	.	.	.	.	.	.	.	.	.	.	.	.	.	.	.	.	.	.	.	.	.	.	.	.	.	.	.	.	.	.	.	.	.	.	.	.	.	.	.	.	.	.
*	*	*	*	*	*	*	*	*	*	*	*	*	*	*	*	*	*	*	*	*	*	*	*v	*v	*	*	*	*	*	*	*	*	*	*	*	*	*	*	*v	*v	*	*	*	*	*
!!LO:PB:g=original
=6	=6	=6	=6	=6	=6	=6	=6	=6	=6	=6	=6	=6	=6	=6	=6	=6	=6	=6	=6	=6	=6	=6	=6	=6	=6	=6	=6	=6	=6	=6	=6	=6	=6	=6	=6	=6	=6	=6	=6	=6	=6	=6	=6
*	*	*	*	*	*	*	*	*^	*	*	*	*	*	*	*	*	*	*	*	*	*	*	*	*	*	*	*	*	*	*	*	*	*	*	*	*	*	*	*	*	*	*	*
*	*	*tremolo	*	*	*	*	*	*	*	*	*	*	*	*	*	*	*	*	*	*	*	*	*	*	*	*	*	*	*	*	*	*	*	*	*	*	*	*	*	*	*	*	*	*
4Ra/	.	32Rcc\LLL	.	4GG/	.	4B- 4E-\	.	4GG 4GGG/	4ryy	.	4E-\	.	4d- 4E-/	4ryy	.	4e- 4B-/	4ryy	.	4e-/	4e-\	.	(4b-/	.	(4b- (4B-/	.	4GG/	4GG\	.	4b-\	.	4b-\	.	4ee- 4b-\	.	(4bb-\	.	(4bb-\	.	4ee- 4b-\	.	(4bb-\	.	(4bb-\	.
.	.	32Rcc\	.	.	.	.	.	.	.	.	.	.	.	.	.	.	.	.	.	.	.	.	.	.	.	.	.	.	.	.	.	.	.	.	.	.	.	.	.	.	.	.	.	.
.	.	32Rcc\	.	.	.	.	.	.	.	.	.	.	.	.	.	.	.	.	.	.	.	.	.	.	.	.	.	.	.	.	.	.	.	.	.	.	.	.	.	.	.	.	.	.
.	.	32Rcc\	.	.	.	.	.	.	.	.	.	.	.	.	.	.	.	.	.	.	.	.	.	.	.	.	.	.	.	.	.	.	.	.	.	.	.	.	.	.	.	.	.	.
.	.	32Rcc\	.	.	.	.	.	.	.	.	.	.	.	.	.	.	.	.	.	.	.	.	.	.	.	.	.	.	.	.	.	.	.	.	.	.	.	.	.	.	.	.	.	.
.	.	32Rcc\	.	.	.	.	.	.	.	.	.	.	.	.	.	.	.	.	.	.	.	.	.	.	.	.	.	.	.	.	.	.	.	.	.	.	.	.	.	.	.	.	.	.
.	.	32Rcc\	.	.	.	.	.	.	.	.	.	.	.	.	.	.	.	.	.	.	.	.	.	.	.	.	.	.	.	.	.	.	.	.	.	.	.	.	.	.	.	.	.	.
.	.	32Rcc\	.	.	.	.	.	.	.	.	.	.	.	.	.	.	.	.	.	.	.	.	.	.	.	.	.	.	.	.	.	.	.	.	.	.	.	.	.	.	.	.	.	.
4r	.	32Rcc\	.	4EE-/	.	4e- 4G\	.	4EE-/	4EE-\	.	4E-\	.	(8c/L	(4G\	.	(8c/L	(8c\L	.	4.ee- 4.e-^^/	2.ryy	.	8cc/L	.	8ccL 8c/	.	4EE-/	4EE-\	.	4g/	.	4r	.	4ee- 4g\	.	8ccc\L	.	8ccc\L	.	4gg 4ee-\	.	8ccc\L	.	8ccc\L	.
.	.	32Rcc\	.	.	.	.	.	.	.	.	.	.	.	.	.	.	.	.	.	.	.	.	.	.	.	.	.	.	.	.	.	.	.	.	.	.	.	.	.	.	.	.	.	.
.	.	32Rcc\	.	.	.	.	.	.	.	.	.	.	.	.	.	.	.	.	.	.	.	.	.	.	.	.	.	.	.	.	.	.	.	.	.	.	.	.	.	.	.	.	.	.
.	.	32Rcc\	.	.	.	.	.	.	.	.	.	.	.	.	.	.	.	.	.	.	.	.	.	.	.	.	.	.	.	.	.	.	.	.	.	.	.	.	.	.	.	.	.	.
.	.	32Rcc\	.	.	.	.	.	.	.	.	.	.	8d-/J	.	.	8d-/J	8d-\J	.	.	.	.	8dd-/J	.	8dd-J 8d-/	.	.	.	.	.	.	.	.	.	.	8ddd-\J	.	8ddd-\J	.	.	.	8ddd-\J	.	8ddd-\J	.
.	.	32Rcc\	.	.	.	.	.	.	.	.	.	.	.	.	.	.	.	.	.	.	.	.	.	.	.	.	.	.	.	.	.	.	.	.	.	.	.	.	.	.	.	.	.	.
.	.	32Rcc\	.	.	.	.	.	.	.	.	.	.	.	.	.	.	.	.	.	.	.	.	.	.	.	.	.	.	.	.	.	.	.	.	.	.	.	.	.	.	.	.	.	.
.	.	32Rcc\	.	.	.	.	.	.	.	.	.	.	.	.	.	.	.	.	.	.	.	.	.	.	.	.	.	.	.	.	.	.	.	.	.	.	.	.	.	.	.	.	.	.
2r	.	32Rcc\	.	4AA-/	.	4c 4E-\	.	4AA- 4AAA-/	2ryy	.	4c\	.	4c) 4E-/)	2ryy	.	4e-/)	4c\)	.	.	.	.	4cc/)	.	4cc 4c/))	.	4AA-/	4AA-\	.	4a-/	.	4cc\	.	4ee- 4cc\	.	4ccc\)	.	4ccc\)	.	4aa- 4ee-\	.	4ccc\)	.	4ccc\)	.
.	.	32Rcc\	.	.	.	.	.	.	.	.	.	.	.	.	.	.	.	.	.	.	.	.	.	.	.	.	.	.	.	.	.	.	.	.	.	.	.	.	.	.	.	.	.	.
.	.	32Rcc\	.	.	.	.	.	.	.	.	.	.	.	.	.	.	.	.	.	.	.	.	.	.	.	.	.	.	.	.	.	.	.	.	.	.	.	.	.	.	.	.	.	.
.	.	32Rcc\	.	.	.	.	.	.	.	.	.	.	.	.	.	.	.	.	.	.	.	.	.	.	.	.	.	.	.	.	.	.	.	.	.	.	.	.	.	.	.	.	.	.
.	.	32Rcc\	.	.	.	.	.	.	.	.	.	.	.	.	.	.	.	.	16ee-LL 16e-/	.	.	.	.	.	.	.	.	.	.	.	.	.	.	.	.	.	.	.	.	.	.	.	.	.
.	.	32Rcc\	.	.	.	.	.	.	.	.	.	.	.	.	.	.	.	.	.	.	.	.	.	.	.	.	.	.	.	.	.	.	.	.	.	.	.	.	.	.	.	.	.	.
.	.	32Rcc\	.	.	.	.	.	.	.	.	.	.	.	.	.	.	.	.	16ee-JJ 16e-/	.	.	.	.	.	.	.	.	.	.	.	.	.	.	.	.	.	.	.	.	.	.	.	.	.
.	.	32Rcc\JJJ	.	.	.	.	.	.	.	.	.	.	.	.	.	.	.	.	.	.	.	.	.	.	.	.	.	.	.	.	.	.	.	.	.	.	.	.	.	.	.	.	.	.
.	.	8qRcc/	.	.	.	.	.	.	.	.	.	.	.	.	.	.	.	.	.	.	.	.	.	.	.	.	.	.	.	.	.	.	.	.	.	.	.	.	.	.	.	.	.	.
.	.	8Rcc\	.	8E-\L	.	4B- 4G\	.	8E-L 8EE-/	.	.	4B-^^\	.	4G 4E-/	.	.	4e-/	4B-\	.	8ee-L 8e-/	.	.	4b-/	.	4b- 4B-/	.	8E-L 8EE-/	4ryy	.	4b-/	.	4b-\	.	4gg 4b-\	.	4bb-\	.	4bb-\	.	4gg 4ee-\	.	4bb-^^\	.	4bb-^^\	.
.	.	8r	.	8D-\J	.	.	.	8D-J 8DD-/	.	.	.	.	.	.	.	.	.	.	8ee-J 8e-/	.	.	.	.	.	.	8D-J 8DD-/	.	.	.	.	.	.	.	.	.	.	.	.	.	.	.	.	.	.
*	*	*	*	*	*	*	*	*v	*v	*	*	*	*v	*v	*	*	*	*	*	*	*	*	*	*	*	*v	*v	*	*	*	*	*	*	*	*	*	*	*	*	*	*	*	*	*
=7	=7	=7	=7	=7	=7	=7	=7	=7	=7	=7	=7	=7	=7	=7	=7	=7	=7	=7	=7	=7	=7	=7	=7	=7	=7	=7	=7	=7	=7	=7	=7	=7	=7	=7	=7	=7	=7	=7	=7	=7	=7
*	*	*	*	*	*	*^	*	*	*	*	*	*	*	*	*	*	*	*	*	*	*	*	*	*	*	*	*	*	*	*^	*	*	*	*	*	*^	*	*	*	*	*
4Ra/	.	32Rcc\LLL	.	2C/	.	(4.e-/	(2A-\	.	2C 2CC/	.	(4.e-^^\	.	4A- 4E-/	.	4e- 4c\	2.ryy	.	4ee- 4e-/	4ryy	.	(4.ee-\	.	(4.ee- (4.e-/	.	2C 2CC/	.	(2ee-\	.	(2a-\	.	(2ee-/	(2a-\	.	(2aa-\	.	(4.eee-^^\	.	2aa- 2ee-\	2.ryy	.	(4.eee-^^\	.	(4.eee-^^\	.
.	.	32Rcc\	.	.	.	.	.	.	.	.	.	.	.	.	.	.	.	.	.	.	.	.	.	.	.	.	.	.	.	.	.	.	.	.	.	.	.	.	.	.	.	.	.	.
.	.	32Rcc\	.	.	.	.	.	.	.	.	.	.	.	.	.	.	.	.	.	.	.	.	.	.	.	.	.	.	.	.	.	.	.	.	.	.	.	.	.	.	.	.	.	.
.	.	32Rcc\	.	.	.	.	.	.	.	.	.	.	.	.	.	.	.	.	.	.	.	.	.	.	.	.	.	.	.	.	.	.	.	.	.	.	.	.	.	.	.	.	.	.
.	.	32Rcc\	.	.	.	.	.	.	.	.	.	.	.	.	.	.	.	.	.	.	.	.	.	.	.	.	.	.	.	.	.	.	.	.	.	.	.	.	.	.	.	.	.	.
.	.	32Rcc\	.	.	.	.	.	.	.	.	.	.	.	.	.	.	.	.	.	.	.	.	.	.	.	.	.	.	.	.	.	.	.	.	.	.	.	.	.	.	.	.	.	.
.	.	32Rcc\	.	.	.	.	.	.	.	.	.	.	.	.	.	.	.	.	.	.	.	.	.	.	.	.	.	.	.	.	.	.	.	.	.	.	.	.	.	.	.	.	.	.
.	.	32Rcc\	.	.	.	.	.	.	.	.	.	.	.	.	.	.	.	.	.	.	.	.	.	.	.	.	.	.	.	.	.	.	.	.	.	.	.	.	.	.	.	.	.	.
4r	.	32Rcc\	.	.	.	.	.	.	.	.	.	.	4c 4A-/	.	4a- 4e-\	.	.	4a-/	4a-\	.	.	.	.	.	.	.	.	.	.	.	.	.	.	.	.	.	.	.	.	.	.	.	.	.
.	.	32Rcc\	.	.	.	.	.	.	.	.	.	.	.	.	.	.	.	.	.	.	.	.	.	.	.	.	.	.	.	.	.	.	.	.	.	.	.	.	.	.	.	.	.	.
.	.	32Rcc\	.	.	.	.	.	.	.	.	.	.	.	.	.	.	.	.	.	.	.	.	.	.	.	.	.	.	.	.	.	.	.	.	.	.	.	.	.	.	.	.	.	.
.	.	32Rcc\	.	.	.	.	.	.	.	.	.	.	.	.	.	.	.	.	.	.	.	.	.	.	.	.	.	.	.	.	.	.	.	.	.	.	.	.	.	.	.	.	.	.
.	.	32Rcc\	.	.	.	8c/	.	.	.	.	8c\	.	.	.	.	.	.	.	.	.	8cc/	.	8cc 8c/	.	.	.	.	.	.	.	.	.	.	.	.	8ccc\	.	.	.	.	8ccc\	.	8ccc\	.
.	.	32Rcc\	.	.	.	.	.	.	.	.	.	.	.	.	.	.	.	.	.	.	.	.	.	.	.	.	.	.	.	.	.	.	.	.	.	.	.	.	.	.	.	.	.	.
.	.	32Rcc\	.	.	.	.	.	.	.	.	.	.	.	.	.	.	.	.	.	.	.	.	.	.	.	.	.	.	.	.	.	.	.	.	.	.	.	.	.	.	.	.	.	.
.	.	32Rcc\JJJ	.	.	.	.	.	.	.	.	.	.	.	.	.	.	.	.	.	.	.	.	.	.	.	.	.	.	.	.	.	.	.	.	.	.	.	.	.	.	.	.	.	.
2r	.	8Rcc\	.	4D-\	.	4B- 4F\))	2ryy	.	4D- 4DD-/	.	4B-\)	.	4B- 4F/	.	4b- 4f\	.	.	4f/	4f\	.	4b-/)	.	4b- 4f/))	.	4D- 4DD-/	.	4ff\)	.	4b-\)	.	4ff/)	4dd-\)	.	4ff\)	.	4bb-\)	.	4ff 4dd-\	.	.	4bb-\)	.	4bb-\)	.
.	.	8r	.	.	.	.	.	.	.	.	.	.	.	.	.	.	.	.	.	.	.	.	.	.	.	.	.	.	.	.	.	.	.	.	.	.	.	.	.	.	.	.	.	.
.	.	8qRcc/	.	.	.	.	.	.	.	.	.	.	.	.	.	.	.	.	.	.	.	.	.	.	.	.	.	.	.	.	.	.	.	.	.	.	.	.	.	.	.	.	.	.
.	.	8Rcc\	.	4E-\	.	(8A-L 8F\	.	.	4E- 4EE-/	.	(8A-\L	.	(8A-L (8F/	.	4d-/	4d-\	.	(8f/L	[4d-\	.	(8a-/L	.	(8a-L (8f/	.	4E- 4EE-/	.	[4dd-\	.	(4d-/	.	(>8ff/L	[4dd-\	.	(8aa-\L	.	(8aa-\L	.	8ff/L	4dd-\	.	(8aa-\L	.	(8aa-\L	.
.	.	8r	.	.	.	8B-J 8G\	.	.	.	.	8B-\J	.	8B-J 8G/	.	.	.	.	8g/J	.	.	8b-/J	.	8b-J 8g/	.	.	.	.	.	.	.	8gg/J	.	.	8bb-\J	.	8bb-\J	.	8gg/J	.	.	8bb-\J	.	8bb-\J	.
*	*	*	*	*	*	*v	*v	*	*	*	*	*	*	*	*	*	*	*v	*v	*	*	*	*	*	*	*	*	*	*	*	*v	*v	*	*	*	*	*	*v	*v	*	*	*	*	*
=8	=8	=8	=8	=8	=8	=8	=8	=8	=8	=8	=8	=8	=8	=8	=8	=8	=8	=8	=8	=8	=8	=8	=8	=8	=8	=8	=8	=8	=8	=8	=8	=8	=8	=8	=8	=8	=8	=8	=8	=8
*	*	*	*	*	*	*	*	*	*	*	*	*	*	*	*	*	*	*	*	*	*	*	*^	*	*	*	*	*	*	*	*	*	*	*	*	*	*	*	*	*
4Ra/	.	32Rcc\LLL	.	2AA-/	.	4d- 4F\)	.	2AA- 2AAA-/	.	4d-\)	.	4d- 4A-/))	.	4a- 4f\	2.ryy	.	4a- 4d-/])	.	4dd-/)	.	4dd-) 4f/)	.	2AA-/	2AA-\	.	4dd-\]	.	4f\)	.	4ff) 4dd-\]	.	4aa-\)	.	4ddd-\)	.	4aa- 4ff\	.	4ddd-\)	.	4ddd-\)	.
.	.	32Rcc\	.	.	.	.	.	.	.	.	.	.	.	.	.	.	.	.	.	.	.	.	.	.	.	.	.	.	.	.	.	.	.	.	.	.	.	.	.	.	.
.	.	32Rcc\	.	.	.	.	.	.	.	.	.	.	.	.	.	.	.	.	.	.	.	.	.	.	.	.	.	.	.	.	.	.	.	.	.	.	.	.	.	.	.
.	.	32Rcc\	.	.	.	.	.	.	.	.	.	.	.	.	.	.	.	.	.	.	.	.	.	.	.	.	.	.	.	.	.	.	.	.	.	.	.	.	.	.	.
.	.	32Rcc\	.	.	.	.	.	.	.	.	.	.	.	.	.	.	.	.	.	.	.	.	.	.	.	.	.	.	.	.	.	.	.	.	.	.	.	.	.	.	.
.	.	32Rcc\	.	.	.	.	.	.	.	.	.	.	.	.	.	.	.	.	.	.	.	.	.	.	.	.	.	.	.	.	.	.	.	.	.	.	.	.	.	.	.
.	.	32Rcc\	.	.	.	.	.	.	.	.	.	.	.	.	.	.	.	.	.	.	.	.	.	.	.	.	.	.	.	.	.	.	.	.	.	.	.	.	.	.	.
.	.	32Rcc\	.	.	.	.	.	.	.	.	.	.	.	.	.	.	.	.	.	.	.	.	.	.	.	.	.	.	.	.	.	.	.	.	.	.	.	.	.	.	.
4r	.	32Rcc\	.	.	.	4c 4C\	.	.	.	4c\	.	4c 4A-/	.	4a- 4e-\	.	.	4a- 4c/	.	4cc/	.	4cc 4e-/	.	.	.	.	4cc\	.	4e-\	.	4ee- 4cc\	.	4aa-\	.	4ccc'\	.	4aa- 4ee-\	.	4ccc'\	.	4ccc'\	.
.	.	32Rcc\	.	.	.	.	.	.	.	.	.	.	.	.	.	.	.	.	.	.	.	.	.	.	.	.	.	.	.	.	.	.	.	.	.	.	.	.	.	.	.
.	.	32Rcc\	.	.	.	.	.	.	.	.	.	.	.	.	.	.	.	.	.	.	.	.	.	.	.	.	.	.	.	.	.	.	.	.	.	.	.	.	.	.	.
.	.	32Rcc\	.	.	.	.	.	.	.	.	.	.	.	.	.	.	.	.	.	.	.	.	.	.	.	.	.	.	.	.	.	.	.	.	.	.	.	.	.	.	.
.	.	32Rcc\	.	.	.	.	.	.	.	.	.	.	.	.	.	.	.	.	.	.	.	.	.	.	.	.	.	.	.	.	.	.	.	.	.	.	.	.	.	.	.
.	.	32Rcc\	.	.	.	.	.	.	.	.	.	.	.	.	.	.	.	.	.	.	.	.	.	.	.	.	.	.	.	.	.	.	.	.	.	.	.	.	.	.	.
.	.	32Rcc\	.	.	.	.	.	.	.	.	.	.	.	.	.	.	.	.	.	.	.	.	.	.	.	.	.	.	.	.	.	.	.	.	.	.	.	.	.	.	.
.	.	32Rcc\JJJ	.	.	.	.	.	.	.	.	.	.	.	.	.	.	.	.	.	.	.	.	.	.	.	.	.	.	.	.	.	.	.	.	.	.	.	.	.	.	.
*	*	*Xtremolo	*	*	*	*	*	*	*	*	*	*	*	*	*	*	*	*	*	*	*	*	*	*	*	*	*	*	*	*	*	*	*	*	*	*	*	*	*	*	*
2r	.	8Rcc\	.	4C/	.	4r	.	4C 4CC/	.	4r	.	4r	.	4r	.	.	4r	.	4r	.	4r	.	4C 4CC/	2ryy	.	4r	.	4r	.	4r	.	4r	.	4r	.	4r	.	4r	.	4r	.
.	.	8r	.	.	.	.	.	.	.	.	.	.	.	.	.	.	.	.	.	.	.	.	.	.	.	.	.	.	.	.	.	.	.	.	.	.	.	.	.	.	.
.	.	4r	.	4FF/	.	4c 4A-\	.	4F 4FF/	.	4A-\	.	4c 4A-/	.	4f/	4f\	.	4f 4c/	.	4a-/	.	4a- 4f/	.	4F 4FF/	.	.	4ff\	.	4a-\	.	4ff 4cc^^\	.	4aa-^^\	.	4aa-^^\	.	4ff 4cc^^\	.	4aa-^^\	.	4aa-^^\	.
*	*	*	*	*	*	*	*	*	*	*	*	*	*	*	*	*	*	*	*	*	*	*	*v	*v	*	*	*	*	*	*	*	*	*	*	*	*	*	*	*	*	*
=9	=9	=9	=9	=9	=9	=9	=9	=9	=9	=9	=9	=9	=9	=9	=9	=9	=9	=9	=9	=9	=9	=9	=9	=9	=9	=9	=9	=9	=9	=9	=9	=9	=9	=9	=9	=9	=9	=9	=9	=9
*	*	*	*	*	*	*	*	*	*	*	*	*	*	*	*	*	*	*	*	*	*^	*	*	*	*	*	*	*	*	*	*	*	*	*	*	*	*	*	*	*
4Ra/	.	8r	.	2EE-/	.	2e- 2G\	.	2E- 2EE-/	.	(4.B-^^\	.	(4.e- 4.B-^^/	.	(4.g^^/	4.g\	.	4.g 4.e-/	.	(4.b-^^/	.	(>4.b- 4.e-^^/	4.ryy	.	2E- 2EE-/	.	(4.gg^^\	.	(4.b-^^\	.	(4.gg 4.ee-^^\	.	(4.bb-^^\	.	(4.bb-^^\	.	2gg 2ee-\	.	(4.bb-^^\	.	(4.bb-^^\	.
.	.	16Rcc\LL	.	.	.	.	.	.	.	.	.	.	.	.	.	.	.	.	.	.	.	.	.	.	.	.	.	.	.	.	.	.	.	.	.	.	.	.	.	.	.
.	.	16Rcc\JJ	.	.	.	.	.	.	.	.	.	.	.	.	.	.	.	.	.	.	.	.	.	.	.	.	.	.	.	.	.	.	.	.	.	.	.	.	.	.	.
4r	.	8Rcc\L	.	.	.	.	.	.	.	.	.	.	.	.	.	.	.	.	.	.	.	.	.	.	.	.	.	.	.	.	.	.	.	.	.	.	.	.	.	.	.
.	.	8Rcc\J	.	.	.	.	.	.	.	8E-\	.	8B- 8G/	.	8e-/	8e-\	.	8B- 8G/	.	8e-/	.	8e-/	8e-\	.	.	.	8g/	.	8e-\	.	8b- 8g\	.	8ee-\	.	8ee-\	.	.	.	8eee-\	.	8ee-\	.
*	*	*tremolo	*	*	*	*	*	*	*	*	*	*	*	*	*	*	*	*	*	*	*	*	*	*	*	*	*	*	*	*	*	*	*	*	*	*	*	*	*	*	*
!	!	!LO:TX:a:t=|	!	!	!	!	!	!	!	!	!	!	!	!	!	!	!	!	!	!	!	!	!	!	!	!	!	!	!	!	!	!	!	!	!	!	!	!	!	!	!
4r	.	32Rcc\LLL	.	4D-\	.	4A- 4F\	.	4D- 4DD-/	.	4F\)	.	4d- 4A-/)	.	4f/)	4f\	.	4d- 4A-/	.	4f/)	.	4f/)	4f\	.	4D- 4DD-/	.	4a-/)	.	4f\)	.	4dd- 4a-\)	.	4ff\)	.	4ff\)	.	4aa- 4ff\	.	4fff\)	.	4ff\)	.
.	.	32Rcc\	.	.	.	.	.	.	.	.	.	.	.	.	.	.	.	.	.	.	.	.	.	.	.	.	.	.	.	.	.	.	.	.	.	.	.	.	.	.	.
.	.	32Rcc\	.	.	.	.	.	.	.	.	.	.	.	.	.	.	.	.	.	.	.	.	.	.	.	.	.	.	.	.	.	.	.	.	.	.	.	.	.	.	.
.	.	32Rcc\	.	.	.	.	.	.	.	.	.	.	.	.	.	.	.	.	.	.	.	.	.	.	.	.	.	.	.	.	.	.	.	.	.	.	.	.	.	.	.
.	.	32Rcc\	.	.	.	.	.	.	.	.	.	.	.	.	.	.	.	.	.	.	.	.	.	.	.	.	.	.	.	.	.	.	.	.	.	.	.	.	.	.	.
.	.	32Rcc\	.	.	.	.	.	.	.	.	.	.	.	.	.	.	.	.	.	.	.	.	.	.	.	.	.	.	.	.	.	.	.	.	.	.	.	.	.	.	.
.	.	32Rcc\	.	.	.	.	.	.	.	.	.	.	.	.	.	.	.	.	.	.	.	.	.	.	.	.	.	.	.	.	.	.	.	.	.	.	.	.	.	.	.
.	.	32Rcc\	.	.	.	.	.	.	.	.	.	.	.	.	.	.	.	.	.	.	.	.	.	.	.	.	.	.	.	.	.	.	.	.	.	.	.	.	.	.	.
4Ra/	.	32Rcc\	.	4BB-/	.	4d- 4G\	.	4BB- 4BBB-/	.	4G\	.	4G 4E-/	.	4e- 4d-\	4ryy	.	4e- 4d-/	.	4g/	.	4g 4d-/	4ryy	.	4BB- 4BBB-/	.	4dd-\	.	4g\	.	4dd- 4g\	.	4gg\	.	4gg\	.	4ee- 4dd-\	.	4ggg'\	.	4gg'\	.
.	.	32Rcc\	.	.	.	.	.	.	.	.	.	.	.	.	.	.	.	.	.	.	.	.	.	.	.	.	.	.	.	.	.	.	.	.	.	.	.	.	.	.	.
.	.	32Rcc\	.	.	.	.	.	.	.	.	.	.	.	.	.	.	.	.	.	.	.	.	.	.	.	.	.	.	.	.	.	.	.	.	.	.	.	.	.	.	.
.	.	32Rcc\	.	.	.	.	.	.	.	.	.	.	.	.	.	.	.	.	.	.	.	.	.	.	.	.	.	.	.	.	.	.	.	.	.	.	.	.	.	.	.
.	.	32Rcc\	.	.	.	.	.	.	.	.	.	.	.	.	.	.	.	.	.	.	.	.	.	.	.	.	.	.	.	.	.	.	.	.	.	.	.	.	.	.	.
.	.	32Rcc\	.	.	.	.	.	.	.	.	.	.	.	.	.	.	.	.	.	.	.	.	.	.	.	.	.	.	.	.	.	.	.	.	.	.	.	.	.	.	.
.	.	32Rcc\	.	.	.	.	.	.	.	.	.	.	.	.	.	.	.	.	.	.	.	.	.	.	.	.	.	.	.	.	.	.	.	.	.	.	.	.	.	.	.
.	.	32Rcc\JJJ	.	.	.	.	.	.	.	.	.	.	.	.	.	.	.	.	.	.	.	.	.	.	.	.	.	.	.	.	.	.	.	.	.	.	.	.	.	.	.
*	*	*Xtremolo	*	*	*	*	*	*	*	*	*	*	*	*	*	*	*	*	*	*	*	*	*	*	*	*	*	*	*	*	*	*	*	*	*	*	*	*	*	*	*
=10	=10	=10	=10	=10	=10	=10	=10	=10	=10	=10	=10	=10	=10	=10	=10	=10	=10	=10	=10	=10	=10	=10	=10	=10	=10	=10	=10	=10	=10	=10	=10	=10	=10	=10	=10	=10	=10	=10	=10	=10	=10
*	*	*	*	*	*	*^	*	*	*	*	*	*^	*	*	*	*	*	*	*	*	*	*	*	*^	*	*	*	*	*	*	*	*	*	*	*	*	*	*	*	*	*
4Ra/	.	8Rcc\	.	2C/	.	4c 4A-\	2.ryy	.	2C 2CC/	.	(4A-\	.	4A- 4E-/	4ryy	.	4e- 4c\	4ryy	.	2e- 2c/	.	(4a-/	.	(4a-/	2.e-\	.	2C 2CC/	2ryy	.	2.ee-\	.	(4a-\	.	2cc 2e-/	.	(4aa-\	.	(4aa-\	.	2ee- 2cc\	.	2eee-\	.	(4aa-\	.
.	.	8r	.	.	.	.	.	.	.	.	.	.	.	.	.	.	.	.	.	.	.	.	.	.	.	.	.	.	.	.	.	.	.	.	.	.	.	.	.	.	.	.	.	.
4r	.	4r	.	.	.	2c 2E-\	.	.	.	.	(8G\L	.	4E-/	4E-\	.	4e-/	4e-\	.	.	.	8g/L	.	8g/L	.	.	.	.	.	.	.	8g\L	.	.	.	8gg\L	.	8gg\L	.	.	.	.	.	8gg\L	.
.	.	.	.	.	.	.	.	.	.	.	8A-\J)	.	.	.	.	.	.	.	.	.	8a-/J	.	8a-/J	.	.	.	.	.	.	.	8a-\J	.	.	.	8aa-\J	.	8aa-\J	.	.	.	.	.	8aa-\J	.
2r	.	8r	.	4AA-/	.	.	.	.	4AA- 4AAA-/	.	4c\)	.	4A- 4E-/	4ryy	.	4e- 4c\	4ryy	.	4a- 4e-/	.	4cc/)	.	4cc/)	.	.	4AA-/	4AA-\	.	.	.	4cc\)	.	4ee- 4a-\	.	4ccc\)	.	4ccc\)	.	4aa- 4ee-\	.	4aaa-\	.	4ccc\)	.
.	.	16Rcc\LL	.	.	.	.	.	.	.	.	.	.	.	.	.	.	.	.	.	.	.	.	.	.	.	.	.	.	.	.	.	.	.	.	.	.	.	.	.	.	.	.	.	.
.	.	16Rcc\JJ	.	.	.	.	.	.	.	.	.	.	.	.	.	.	.	.	.	.	.	.	.	.	.	.	.	.	.	.	.	.	.	.	.	.	.	.	.	.	.	.	.	.
.	.	8Rcc\L	.	4C/	.	(8G/L	[4E-\	.	4C 4CC/	.	(8G\L	.	[4e-/	(>8G\L	.	(<8g/L	[4e-\	.	4e- 4c/	.	(8g/L	.	(8g/L	[4e-\	.	4C 4CC/	4ryy	.	4ee-\	.	(8g\L	.	4cc 4e-/	.	(8gg\L	.	(8gg\L	.	4ee- 4cc\	.	[4eee-\	.	(8gg\L	.
.	.	8Rcc\J	.	.	.	8A-/J	.	.	.	.	8A-\J	.	.	8A-\J	.	8a-/J	.	.	.	.	8a-/J	.	8a-/J	.	.	.	.	.	.	.	8a-\J	.	.	.	8aa-\J	.	8aa-\J	.	.	.	.	.	8aa-\J	.
*	*	*	*	*	*	*v	*v	*	*	*	*	*	*	*	*	*	*	*	*	*	*	*	*	*	*	*	*	*	*	*	*	*	*	*	*	*	*	*	*	*	*	*	*	*
=11	=11	=11	=11	=11	=11	=11	=11	=11	=11	=11	=11	=11	=11	=11	=11	=11	=11	=11	=11	=11	=11	=11	=11	=11	=11	=11	=11	=11	=11	=11	=11	=11	=11	=11	=11	=11	=11	=11	=11	=11	=11	=11	=11
*	*	*	*	*	*	*	*	*^	*	*	*	*	*	*	*	*	*	*	*	*	*	*	*	*	*	*	*	*	*	*	*	*	*	*	*	*	*	*	*	*	*	*	*
*	*	*tremolo	*	*	*	*	*	*	*	*	*	*	*	*	*	*	*	*	*	*	*	*	*	*	*	*	*	*	*	*	*	*	*	*	*	*	*	*	*	*	*	*	*	*
!	!	!	!	!	!	!	!	!	!	!	!	!	!LO:S:s=2:note:problem:note-level slur	!	!	!LO:S:s=1:note:problem:note-level slur	!	!	!	!	!	!	!	!	!	!	!	!	!	!	!	!	!	!	!	!	!	!	!	!	!	!	!	!
4Ra/	.	32Rcc\LLL	.	2GG/	.	2B- 2E-\])	.	2GG/	2GG\	.	4B-\)	.	4e-] 4B-/)	4ryy	.	4b-) 4e-\]	4ryy	.	2e- 2B-/	.	4b-/)	.	4b-/)	2e-\]	.	2GG/	2GG\	.	2ee-\	.	4b-\)	.	2b- 2e-/	.	4bb-\)	.	4bb-\)	.	2ee- 2b-\	.	4eee-\]	.	4bb-\)	.
.	.	32Rcc\	.	.	.	.	.	.	.	.	.	.	.	.	.	.	.	.	.	.	.	.	.	.	.	.	.	.	.	.	.	.	.	.	.	.	.	.	.	.	.	.	.	.
.	.	32Rcc\	.	.	.	.	.	.	.	.	.	.	.	.	.	.	.	.	.	.	.	.	.	.	.	.	.	.	.	.	.	.	.	.	.	.	.	.	.	.	.	.	.	.
.	.	32Rcc\	.	.	.	.	.	.	.	.	.	.	.	.	.	.	.	.	.	.	.	.	.	.	.	.	.	.	.	.	.	.	.	.	.	.	.	.	.	.	.	.	.	.
.	.	32Rcc\	.	.	.	.	.	.	.	.	.	.	.	.	.	.	.	.	.	.	.	.	.	.	.	.	.	.	.	.	.	.	.	.	.	.	.	.	.	.	.	.	.	.
.	.	32Rcc\	.	.	.	.	.	.	.	.	.	.	.	.	.	.	.	.	.	.	.	.	.	.	.	.	.	.	.	.	.	.	.	.	.	.	.	.	.	.	.	.	.	.
.	.	32Rcc\	.	.	.	.	.	.	.	.	.	.	.	.	.	.	.	.	.	.	.	.	.	.	.	.	.	.	.	.	.	.	.	.	.	.	.	.	.	.	.	.	.	.
.	.	32Rcc\	.	.	.	.	.	.	.	.	.	.	.	.	.	.	.	.	.	.	.	.	.	.	.	.	.	.	.	.	.	.	.	.	.	.	.	.	.	.	.	.	.	.
4r	.	32Rcc\	.	.	.	.	.	.	.	.	4E-\	.	4B-/	4B-\	.	4e-/	4e-\	.	.	.	4e-/	.	4e-/	.	.	.	.	.	.	.	4e-\	.	.	.	4ee-\	.	4ee-\	.	.	.	4eee-\	.	4ee-\	.
.	.	32Rcc\	.	.	.	.	.	.	.	.	.	.	.	.	.	.	.	.	.	.	.	.	.	.	.	.	.	.	.	.	.	.	.	.	.	.	.	.	.	.	.	.	.	.
.	.	32Rcc\	.	.	.	.	.	.	.	.	.	.	.	.	.	.	.	.	.	.	.	.	.	.	.	.	.	.	.	.	.	.	.	.	.	.	.	.	.	.	.	.	.	.
.	.	32Rcc\	.	.	.	.	.	.	.	.	.	.	.	.	.	.	.	.	.	.	.	.	.	.	.	.	.	.	.	.	.	.	.	.	.	.	.	.	.	.	.	.	.	.
.	.	32Rcc\	.	.	.	.	.	.	.	.	.	.	.	.	.	.	.	.	.	.	.	.	.	.	.	.	.	.	.	.	.	.	.	.	.	.	.	.	.	.	.	.	.	.
.	.	32Rcc\	.	.	.	.	.	.	.	.	.	.	.	.	.	.	.	.	.	.	.	.	.	.	.	.	.	.	.	.	.	.	.	.	.	.	.	.	.	.	.	.	.	.
.	.	32Rcc\	.	.	.	.	.	.	.	.	.	.	.	.	.	.	.	.	.	.	.	.	.	.	.	.	.	.	.	.	.	.	.	.	.	.	.	.	.	.	.	.	.	.
.	.	32Rcc\JJJ	.	.	.	.	.	.	.	.	.	.	.	.	.	.	.	.	.	.	.	.	.	.	.	.	.	.	.	.	.	.	.	.	.	.	.	.	.	.	.	.	.	.
*	*	*Xtremolo	*	*	*	*	*	*	*	*	*	*	*	*	*	*	*	*	*	*	*	*	*	*	*	*	*	*	*	*	*	*	*	*	*	*	*	*	*	*	*	*	*	*
4r	.	8Rcc\L	.	4BB-/	.	4A- 4F\	.	4BB- 4BBB-/	2ryy	.	4F\	.	4A- 4F/	2ryy	.	4f 4B-\	2ryy	.	4d- 4A-/	.	4f/	.	4f/	4d-\	.	4BB-/	4BB-\	.	4dd-\	.	4f\	.	4dd- 4a-\	.	4ff\	.	4ff\	.	4dd- 4a-\	.	4fff\	.	4ff\	.
.	.	16Rcc\L	.	.	.	.	.	.	.	.	.	.	.	.	.	.	.	.	.	.	.	.	.	.	.	.	.	.	.	.	.	.	.	.	.	.	.	.	.	.	.	.	.	.
.	.	16Rcc\JJ	.	.	.	.	.	.	.	.	.	.	.	.	.	.	.	.	.	.	.	.	.	.	.	.	.	.	.	.	.	.	.	.	.	.	.	.	.	.	.	.	.	.
4Ra/	.	8Rcc\L	.	8E-\L	.	4B- 4G\	.	8E-L 8EE-/	.	.	4G\	.	4B- 4G/	.	.	4g 4e-\	.	.	4e- 4B-/	.	4g/	.	4g/	4e-\	.	8E-L 8EE-/	4ryy	.	4ee-\	.	4g\	.	4b- 4g/	.	4gg\	.	4gg\	.	4ee- 4b-\	.	4ggg\	.	4gg\	.
.	.	8Rcc\J	.	8D-\J	.	.	.	8D-J 8DD-/	.	.	.	.	.	.	.	.	.	.	.	.	.	.	.	.	.	8D-J 8DD-/	.	.	.	.	.	.	.	.	.	.	.	.	.	.	.	.	.	.
*	*	*	*	*	*	*	*	*	*	*	*	*	*v	*v	*	*	*	*	*	*	*	*	*	*	*	*	*	*	*	*	*	*	*	*	*	*	*	*	*	*	*	*	*	*
*	*	*	*	*	*	*	*	*v	*v	*	*	*	*	*	*v	*v	*	*	*	*	*	*	*	*	*	*	*	*	*	*	*	*	*	*	*	*	*	*	*	*	*	*	*
!!LO:PB:g=original
=12	=12	=12	=12	=12	=12	=12	=12	=12	=12	=12	=12	=12	=12	=12	=12	=12	=12	=12	=12	=12	=12	=12	=12	=12	=12	=12	=12	=12	=12	=12	=12	=12	=12	=12	=12	=12	=12	=12	=12	=12	=12
*	*	*	*	*	*	*	*	*	*	*	*	*	*	*	*	*	*	*	*	*	*	*	*	*	*	*	*	*	*	*^	*	*	*	*	*	*	*	*	*	*	*
*	*	*tremolo	*	*	*	*	*	*	*	*	*	*	*	*	*	*	*	*	*	*	*	*	*	*	*	*	*	*	*	*	*	*	*	*	*	*	*	*	*	*	*	*
4Ra/	.	32Rcc\LLL	.	4C/	.	4A- 4E-\	.	4C 4CC/	.	4A-\	.	4c 4A-/	.	4a- 4e-\	.	4e- 4c/	.	4a-/	.	4a-/	2.e-\	.	4C 4CC/	4ryy	.	4ee-\	.	4a-\	.	4ee- 4a-\	4ryy	.	4aa-\	.	4aa-\	.	4aa- 4ee-\	.	4eee-\	.	4aa-\	.
.	.	32Rcc\	.	.	.	.	.	.	.	.	.	.	.	.	.	.	.	.	.	.	.	.	.	.	.	.	.	.	.	.	.	.	.	.	.	.	.	.	.	.	.	.
.	.	32Rcc\	.	.	.	.	.	.	.	.	.	.	.	.	.	.	.	.	.	.	.	.	.	.	.	.	.	.	.	.	.	.	.	.	.	.	.	.	.	.	.	.
.	.	32Rcc\	.	.	.	.	.	.	.	.	.	.	.	.	.	.	.	.	.	.	.	.	.	.	.	.	.	.	.	.	.	.	.	.	.	.	.	.	.	.	.	.
.	.	32Rcc\	.	.	.	.	.	.	.	.	.	.	.	.	.	.	.	.	.	.	.	.	.	.	.	.	.	.	.	.	.	.	.	.	.	.	.	.	.	.	.	.
.	.	32Rcc\	.	.	.	.	.	.	.	.	.	.	.	.	.	.	.	.	.	.	.	.	.	.	.	.	.	.	.	.	.	.	.	.	.	.	.	.	.	.	.	.
.	.	32Rcc\	.	.	.	.	.	.	.	.	.	.	.	.	.	.	.	.	.	.	.	.	.	.	.	.	.	.	.	.	.	.	.	.	.	.	.	.	.	.	.	.
.	.	32Rcc\	.	.	.	.	.	.	.	.	.	.	.	.	.	.	.	.	.	.	.	.	.	.	.	.	.	.	.	.	.	.	.	.	.	.	.	.	.	.	.	.
4r	.	32Rcc\	.	4GG/	.	4B- 4E-\	.	4GG 4GGG/	.	(8B-\L	.	4B- 4E-/	.	4e- 4d-\	.	4e- 4B-/	.	(8b-/L	.	8b-/L	.	.	4GG/	4GG\	.	4dd-\	.	4b-\	.	4ee-/	(8b-\L	.	4bb-\	.	(8bb-\L	.	4ee- 4dd-\	.	2eee-\	.	(8bb-\L	.
.	.	32Rcc\	.	.	.	.	.	.	.	.	.	.	.	.	.	.	.	.	.	.	.	.	.	.	.	.	.	.	.	.	.	.	.	.	.	.	.	.	.	.	.	.
.	.	32Rcc\	.	.	.	.	.	.	.	.	.	.	.	.	.	.	.	.	.	.	.	.	.	.	.	.	.	.	.	.	.	.	.	.	.	.	.	.	.	.	.	.
.	.	32Rcc\	.	.	.	.	.	.	.	.	.	.	.	.	.	.	.	.	.	.	.	.	.	.	.	.	.	.	.	.	.	.	.	.	.	.	.	.	.	.	.	.
.	.	32Rcc\	.	.	.	.	.	.	.	8d-\J	.	.	.	.	.	.	.	8dd-/J	.	8dd-/J	.	.	.	.	.	.	.	.	.	.	8dd-\J	.	.	.	8ddd-\J	.	.	.	.	.	8ddd-\J	.
.	.	32Rcc\	.	.	.	.	.	.	.	.	.	.	.	.	.	.	.	.	.	.	.	.	.	.	.	.	.	.	.	.	.	.	.	.	.	.	.	.	.	.	.	.
.	.	32Rcc\	.	.	.	.	.	.	.	.	.	.	.	.	.	.	.	.	.	.	.	.	.	.	.	.	.	.	.	.	.	.	.	.	.	.	.	.	.	.	.	.
.	.	32Rcc\	.	.	.	.	.	.	.	.	.	.	.	.	.	.	.	.	.	.	.	.	.	.	.	.	.	.	.	.	.	.	.	.	.	.	.	.	.	.	.	.
4Ra/	.	32Rcc\	.	4AA-/	.	4c 4E-\	.	4AA- 4AAA-/	.	4c\)	.	4A- 4E-/	.	4e- 4c\	.	4e- 4c/	.	4cc/)	.	4cc/	.	.	4AA-/	4AA-\	.	4cc\	.	4cc\	.	4ee-/	4cc\)	.	4aa-\	.	4ccc\)	.	4ee- 4cc\	.	.	.	4ccc\)	.
.	.	32Rcc\	.	.	.	.	.	.	.	.	.	.	.	.	.	.	.	.	.	.	.	.	.	.	.	.	.	.	.	.	.	.	.	.	.	.	.	.	.	.	.	.
.	.	32Rcc\	.	.	.	.	.	.	.	.	.	.	.	.	.	.	.	.	.	.	.	.	.	.	.	.	.	.	.	.	.	.	.	.	.	.	.	.	.	.	.	.
.	.	32Rcc\	.	.	.	.	.	.	.	.	.	.	.	.	.	.	.	.	.	.	.	.	.	.	.	.	.	.	.	.	.	.	.	.	.	.	.	.	.	.	.	.
.	.	32Rcc\	.	.	.	.	.	.	.	.	.	.	.	.	.	.	.	.	.	.	.	.	.	.	.	.	.	.	.	.	.	.	.	.	.	.	.	.	.	.	.	.
.	.	32Rcc\	.	.	.	.	.	.	.	.	.	.	.	.	.	.	.	.	.	.	.	.	.	.	.	.	.	.	.	.	.	.	.	.	.	.	.	.	.	.	.	.
.	.	32Rcc\	.	.	.	.	.	.	.	.	.	.	.	.	.	.	.	.	.	.	.	.	.	.	.	.	.	.	.	.	.	.	.	.	.	.	.	.	.	.	.	.
.	.	32Rcc\	.	.	.	.	.	.	.	.	.	.	.	.	.	.	.	.	.	.	.	.	.	.	.	.	.	.	.	.	.	.	.	.	.	.	.	.	.	.	.	.
4Ra/	.	32Rcc\	.	4FF/	.	4c 4Dn\	.	4FF 4FFF/	.	4c\	.	4A- 4D/	.	4d 4c/	.	4a- 4d/	.	4cc/	.	4cc/	4d\	.	4FF/	4FF\	.	4ddn\	.	4cc\	.	4dd 4cc\	4ryy	.	4aa-\	.	4ccc\	.	4aa- 4ddn\	.	4aaa-\	.	4ccc\	.
.	.	32Rcc\	.	.	.	.	.	.	.	.	.	.	.	.	.	.	.	.	.	.	.	.	.	.	.	.	.	.	.	.	.	.	.	.	.	.	.	.	.	.	.	.
.	.	32Rcc\	.	.	.	.	.	.	.	.	.	.	.	.	.	.	.	.	.	.	.	.	.	.	.	.	.	.	.	.	.	.	.	.	.	.	.	.	.	.	.	.
.	.	32Rcc\	.	.	.	.	.	.	.	.	.	.	.	.	.	.	.	.	.	.	.	.	.	.	.	.	.	.	.	.	.	.	.	.	.	.	.	.	.	.	.	.
.	.	32Rcc\	.	.	.	.	.	.	.	.	.	.	.	.	.	.	.	.	.	.	.	.	.	.	.	.	.	.	.	.	.	.	.	.	.	.	.	.	.	.	.	.
.	.	32Rcc\	.	.	.	.	.	.	.	.	.	.	.	.	.	.	.	.	.	.	.	.	.	.	.	.	.	.	.	.	.	.	.	.	.	.	.	.	.	.	.	.
.	.	32Rcc\	.	.	.	.	.	.	.	.	.	.	.	.	.	.	.	.	.	.	.	.	.	.	.	.	.	.	.	.	.	.	.	.	.	.	.	.	.	.	.	.
.	.	32Rcc\JJJ	.	.	.	.	.	.	.	.	.	.	.	.	.	.	.	.	.	.	.	.	.	.	.	.	.	.	.	.	.	.	.	.	.	.	.	.	.	.	.	.
*	*	*Xtremolo	*	*	*	*	*	*	*	*	*	*	*	*	*	*	*	*	*	*	*	*	*	*	*	*	*	*	*	*	*	*	*	*	*	*	*	*	*	*	*	*
=13	=13	=13	=13	=13	=13	=13	=13	=13	=13	=13	=13	=13	=13	=13	=13	=13	=13	=13	=13	=13	=13	=13	=13	=13	=13	=13	=13	=13	=13	=13	=13	=13	=13	=13	=13	=13	=13	=13	=13	=13	=13	=13
*	*	*	*	*	*	*	*	*	*	*	*	*	*	*^	*	*	*	*	*	*	*	*	*	*	*	*	*	*	*	*	*	*	*	*	*	*	*	*	*	*	*	*
4Ra/	.	8Rcc\L	.	2GG/	.	2B- 2E-\	.	2GG 2GGG/	.	(4.B-^^\	.	2G 2E-/	.	2.e-/	(4.B-^\	.	2.g 2.e-/	.	(4.b-^^/	.	(4.b-^^/	2.e-\	.	2GG/	2GG\	.	2.ee-\	.	(4.b-^^\	.	2.ee-/	(4.b-^^>\	.	(4.bb-^^\	.	(4.bb-^^\	.	2.gg 2.ee-\	.	2ggg\	.	(4.bb-^^\	.
.	.	16Rcc\L	.	.	.	.	.	.	.	.	.	.	.	.	.	.	.	.	.	.	.	.	.	.	.	.	.	.	.	.	.	.	.	.	.	.	.	.	.	.	.	.	.
.	.	16Rcc\JJ	.	.	.	.	.	.	.	.	.	.	.	.	.	.	.	.	.	.	.	.	.	.	.	.	.	.	.	.	.	.	.	.	.	.	.	.	.	.	.	.	.
4r	.	8Rcc\L	.	.	.	.	.	.	.	.	.	.	.	.	.	.	.	.	.	.	.	.	.	.	.	.	.	.	.	.	.	.	.	.	.	.	.	.	.	.	.	.	.
.	.	8Rcc\J	.	.	.	.	.	.	.	8c\	.	.	.	.	8c\	.	.	.	8cc/	.	8cc/	.	.	.	.	.	.	.	8cc\	.	.	8cc\	.	8ccc\	.	8ccc\	.	.	.	.	.	8ccc\	.
*	*	*tremolo	*	*	*	*	*	*	*	*	*	*	*	*	*	*	*	*	*	*	*	*	*	*	*	*	*	*	*	*	*	*	*	*	*	*	*	*	*	*	*	*	*
2r	.	32Rcc\LLL	.	8G\L	.	4r	.	8GL 8GG/	.	4B-\)	.	4r	.	.	4B-\)	.	.	.	4b-/)	.	4b-/)	.	.	8GL 8GG/	2ryy	.	.	.	4b-\)	.	.	4b-\)	.	4bb-\)	.	4bb-\)	.	.	.	4eee-\	.	4bb-\)	.
.	.	32Rcc\	.	.	.	.	.	.	.	.	.	.	.	.	.	.	.	.	.	.	.	.	.	.	.	.	.	.	.	.	.	.	.	.	.	.	.	.	.	.	.	.	.
.	.	32Rcc\	.	.	.	.	.	.	.	.	.	.	.	.	.	.	.	.	.	.	.	.	.	.	.	.	.	.	.	.	.	.	.	.	.	.	.	.	.	.	.	.	.
.	.	32Rcc\	.	.	.	.	.	.	.	.	.	.	.	.	.	.	.	.	.	.	.	.	.	.	.	.	.	.	.	.	.	.	.	.	.	.	.	.	.	.	.	.	.
.	.	32Rcc\	.	8F\	.	.	.	8F 8FF/	.	.	.	.	.	.	.	.	.	.	.	.	.	.	.	8F 8FF/	.	.	.	.	.	.	.	.	.	.	.	.	.	.	.	.	.	.	.
.	.	32Rcc\	.	.	.	.	.	.	.	.	.	.	.	.	.	.	.	.	.	.	.	.	.	.	.	.	.	.	.	.	.	.	.	.	.	.	.	.	.	.	.	.	.
.	.	32Rcc\	.	.	.	.	.	.	.	.	.	.	.	.	.	.	.	.	.	.	.	.	.	.	.	.	.	.	.	.	.	.	.	.	.	.	.	.	.	.	.	.	.
.	.	32Rcc\	.	.	.	.	.	.	.	.	.	.	.	.	.	.	.	.	.	.	.	.	.	.	.	.	.	.	.	.	.	.	.	.	.	.	.	.	.	.	.	.	.
.	.	32Rcc\	.	8E-\	.	4e- 4G\	.	8E- 8EE-/	.	4e-\	.	4B- 4G/	.	4g/	4e-\	.	4g 4e-/	.	4ee-\	.	4ee-/	4e-\	.	8E- 8EE-/	.	.	4b-\	.	4g\	.	4gg 4ee-\	4ryy	.	4bb-\	.	4eee-\	.	4bb- 4gg\	.	4eee-\	.	4eee-\	.
.	.	32Rcc\	.	.	.	.	.	.	.	.	.	.	.	.	.	.	.	.	.	.	.	.	.	.	.	.	.	.	.	.	.	.	.	.	.	.	.	.	.	.	.	.	.
.	.	32Rcc\	.	.	.	.	.	.	.	.	.	.	.	.	.	.	.	.	.	.	.	.	.	.	.	.	.	.	.	.	.	.	.	.	.	.	.	.	.	.	.	.	.
.	.	32Rcc\	.	.	.	.	.	.	.	.	.	.	.	.	.	.	.	.	.	.	.	.	.	.	.	.	.	.	.	.	.	.	.	.	.	.	.	.	.	.	.	.	.
.	.	32Rcc\	.	8Dn\J	.	.	.	8DnJ 8DDn/	.	.	.	.	.	.	.	.	.	.	.	.	.	.	.	8DnJ 8DDn/	.	.	.	.	.	.	.	.	.	.	.	.	.	.	.	.	.	.	.
.	.	32Rcc\	.	.	.	.	.	.	.	.	.	.	.	.	.	.	.	.	.	.	.	.	.	.	.	.	.	.	.	.	.	.	.	.	.	.	.	.	.	.	.	.	.
.	.	32Rcc\	.	.	.	.	.	.	.	.	.	.	.	.	.	.	.	.	.	.	.	.	.	.	.	.	.	.	.	.	.	.	.	.	.	.	.	.	.	.	.	.	.
.	.	32Rcc\JJJ	.	.	.	.	.	.	.	.	.	.	.	.	.	.	.	.	.	.	.	.	.	.	.	.	.	.	.	.	.	.	.	.	.	.	.	.	.	.	.	.	.
*	*	*Xtremolo	*	*	*	*	*	*	*	*	*	*	*	*	*	*	*	*	*	*	*	*	*	*	*	*	*	*	*	*	*	*	*	*	*	*	*	*	*	*	*	*	*
*	*	*	*	*	*	*	*	*	*	*	*	*	*	*	*	*	*	*	*	*	*	*	*	*v	*v	*	*	*	*	*	*	*	*	*	*	*	*	*	*	*	*	*	*
=14	=14	=14	=14	=14	=14	=14	=14	=14	=14	=14	=14	=14	=14	=14	=14	=14	=14	=14	=14	=14	=14	=14	=14	=14	=14	=14	=14	=14	=14	=14	=14	=14	=14	=14	=14	=14	=14	=14	=14	=14	=14	=14
*	*	*	*	*	*	*^	*	*	*	*	*	*^	*	*	*	*	*^	*	*	*	*	*	*	*	*	*	*	*	*	*	*	*	*	*	*	*	*^	*	*	*	*	*
4Ra/	.	8Rcc\L	.	2C/	.	2.e- 2.G\	2.ryy	.	2C 2CC/	.	(4.G^^\	.	2.c^^/	(4.G\	.	(<4.g^^/	2.e-\	.	2.e- 2.c/	2.ryy	.	(4.g^^/	.	(4.g^^/	2.e-\	.	2C 2CC/	.	2.ee-\	.	(4.g^^\	.	2.ee- 2.cc\	2.ryy	.	(4.gg^^\	.	(4.gg^^\	.	2.ee- 2.cc\	2.ryy	.	(4.gg^^\	.	(4.gg^^\	.
.	.	16Rcc\L	.	.	.	.	.	.	.	.	.	.	.	.	.	.	.	.	.	.	.	.	.	.	.	.	.	.	.	.	.	.	.	.	.	.	.	.	.	.	.	.	.	.	.	.
.	.	16Rcc\JJ	.	.	.	.	.	.	.	.	.	.	.	.	.	.	.	.	.	.	.	.	.	.	.	.	.	.	.	.	.	.	.	.	.	.	.	.	.	.	.	.	.	.	.	.
4r	.	8Rcc\L	.	.	.	.	.	.	.	.	.	.	.	.	.	.	.	.	.	.	.	.	.	.	.	.	.	.	.	.	.	.	.	.	.	.	.	.	.	.	.	.	.	.	.	.
.	.	8Rcc\J	.	.	.	.	.	.	.	.	8A-\	.	.	8A-\	.	8a-/	.	.	.	.	.	8a-/	.	8a-/)	.	.	.	.	.	.	8a-\	.	.	.	.	8aa-\	.	8aa-\	.	.	.	.	8aa-\	.	8aa-\	.
*	*	*tremolo	*	*	*	*	*	*	*	*	*	*	*	*	*	*	*	*	*	*	*	*	*	*	*	*	*	*	*	*	*	*	*	*	*	*	*	*	*	*	*	*	*	*	*	*
2r	.	32Rcc\LLL	.	8C/L	.	.	.	.	8CL 8CC/	.	4G\)	.	.	4G\)	.	4g/)	.	.	.	.	.	4g/)	.	4g/	.	.	8C/L	.	.	.	4g\)	.	.	.	.	4gg\)	.	4gg\)	.	.	.	.	4gg\)	.	4gg\)	.
.	.	32Rcc\	.	.	.	.	.	.	.	.	.	.	.	.	.	.	.	.	.	.	.	.	.	.	.	.	.	.	.	.	.	.	.	.	.	.	.	.	.	.	.	.	.	.	.	.
.	.	32Rcc\	.	.	.	.	.	.	.	.	.	.	.	.	.	.	.	.	.	.	.	.	.	.	.	.	.	.	.	.	.	.	.	.	.	.	.	.	.	.	.	.	.	.	.	.
.	.	32Rcc\	.	.	.	.	.	.	.	.	.	.	.	.	.	.	.	.	.	.	.	.	.	.	.	.	.	.	.	.	.	.	.	.	.	.	.	.	.	.	.	.	.	.	.	.
.	.	32Rcc\	.	8BB-/	.	.	.	.	8BB- 8BBB-/	.	.	.	.	.	.	.	.	.	.	.	.	.	.	.	.	.	8BB-/	.	.	.	.	.	.	.	.	.	.	.	.	.	.	.	.	.	.	.
.	.	32Rcc\	.	.	.	.	.	.	.	.	.	.	.	.	.	.	.	.	.	.	.	.	.	.	.	.	.	.	.	.	.	.	.	.	.	.	.	.	.	.	.	.	.	.	.	.
.	.	32Rcc\	.	.	.	.	.	.	.	.	.	.	.	.	.	.	.	.	.	.	.	.	.	.	.	.	.	.	.	.	.	.	.	.	.	.	.	.	.	.	.	.	.	.	.	.
.	.	32Rcc\	.	.	.	.	.	.	.	.	.	.	.	.	.	.	.	.	.	.	.	.	.	.	.	.	.	.	.	.	.	.	.	.	.	.	.	.	.	.	.	.	.	.	.	.
.	.	32Rcc\	.	8AA-/	.	(<8c/L	4E-\	.	8AA- 8AAA-/	.	(8A-\L	.	(8c/L	[4E-\	.	[4e-/	(8c\L	.	[4e-/	[4e-\	.	(8a-/L	.	(8a-/L	[4e-\	.	8AA-/	.	(8cc\L	.	(8a-\L	.	(8cc/L	8cc\L	.	(8aa-\L	.	(8aa-\L	.	4ee-/	4ee-\	.	[4eee-\	.	(8aa-\L	.
.	.	32Rcc\	.	.	.	.	.	.	.	.	.	.	.	.	.	.	.	.	.	.	.	.	.	.	.	.	.	.	.	.	.	.	.	.	.	.	.	.	.	.	.	.	.	.	.	.
.	.	32Rcc\	.	.	.	.	.	.	.	.	.	.	.	.	.	.	.	.	.	.	.	.	.	.	.	.	.	.	.	.	.	.	.	.	.	.	.	.	.	.	.	.	.	.	.	.
.	.	32Rcc\	.	.	.	.	.	.	.	.	.	.	.	.	.	.	.	.	.	.	.	.	.	.	.	.	.	.	.	.	.	.	.	.	.	.	.	.	.	.	.	.	.	.	.	.
.	.	32Rcc\	.	8GG/J	.	8B-/J	.	.	8GGJ 8GGG/	.	8B-\J	.	8B-/J	.	.	.	8B-\J	.	.	.	.	8b-/J	.	8b-/J	.	.	8GG/J	.	8b-\J	.	8b-\J	.	8b-/J	8b-\J	.	8bb-\J	.	8bb-\J	.	.	.	.	.	.	8bb-\J	.
.	.	32Rcc\	.	.	.	.	.	.	.	.	.	.	.	.	.	.	.	.	.	.	.	.	.	.	.	.	.	.	.	.	.	.	.	.	.	.	.	.	.	.	.	.	.	.	.	.
.	.	32Rcc\	.	.	.	.	.	.	.	.	.	.	.	.	.	.	.	.	.	.	.	.	.	.	.	.	.	.	.	.	.	.	.	.	.	.	.	.	.	.	.	.	.	.	.	.
.	.	32Rcc\JJJ	.	.	.	.	.	.	.	.	.	.	.	.	.	.	.	.	.	.	.	.	.	.	.	.	.	.	.	.	.	.	.	.	.	.	.	.	.	.	.	.	.	.	.	.
*	*	*Xtremolo	*	*	*	*	*	*	*	*	*	*	*	*	*	*	*	*	*	*	*	*	*	*	*	*	*	*	*	*	*	*	*	*	*	*	*	*	*	*	*	*	*	*	*	*
*	*	*	*	*	*	*v	*v	*	*	*	*	*	*	*	*	*v	*v	*	*	*	*	*	*	*	*	*	*	*	*	*	*	*	*v	*v	*	*	*	*	*	*v	*v	*	*	*	*	*
=15	=15	=15	=15	=15	=15	=15	=15	=15	=15	=15	=15	=15	=15	=15	=15	=15	=15	=15	=15	=15	=15	=15	=15	=15	=15	=15	=15	=15	=15	=15	=15	=15	=15	=15	=15	=15	=15	=15	=15	=15	=15	=15
*	*	*	*	*	*	*	*	*	*	*	*	*	*	*	*	*	*	*	*	*	*	*	*	*	*^	*	*	*	*	*	*	*	*	*	*	*	*	*	*	*	*	*
!	!	!	!	!	!	!LO:S:s=1:note:problem:note-level slur	!	!	!	!	!	!	!	!	!	!	!	!	!	!	!	!	!	!	!	!	!	!	!	!	!	!	!	!	!	!	!	!	!	!	!	!	!
4Ra/	.	8Rcc\L	.	2FF^^/	.	2c) 2E-^^\	.	2FF 2FFF/	.	2c\)	.	2A-/)	2E-\]	.	2e-] 2c/)	.	2e-/]	2e-\]	.	2cc/)	.	2cc/)	2e-\]	.	2FF/	2FF\	.	2a-/)	.	2cc\)	.	2ee- 2cc\)	.	2ccc\)	.	2ccc\)	.	2aa- 2ee-^^\	.	2eee-\]	.	2ccc\)	.
.	.	16Rcc\L	.	.	.	.	.	.	.	.	.	.	.	.	.	.	.	.	.	.	.	.	.	.	.	.	.	.	.	.	.	.	.	.	.	.	.	.	.	.	.	.	.
.	.	16Rcc\JJ	.	.	.	.	.	.	.	.	.	.	.	.	.	.	.	.	.	.	.	.	.	.	.	.	.	.	.	.	.	.	.	.	.	.	.	.	.	.	.	.	.
4r	.	8Rcc\L	.	.	.	.	.	.	.	.	.	.	.	.	.	.	.	.	.	.	.	.	.	.	.	.	.	.	.	.	.	.	.	.	.	.	.	.	.	.	.	.	.
.	.	8Rcc\J	.	.	.	.	.	.	.	.	.	.	.	.	.	.	.	.	.	.	.	.	.	.	.	.	.	.	.	.	.	.	.	.	.	.	.	.	.	.	.	.	.
4Ra/	.	8Rcc\L	.	2BB-^^/	.	2dn 2A-^^\	.	2BB- 2BBB-^^/	.	2Dn\	.	2A- 2D^^/	2ryy	.	2d 2B-^^/	.	8b-L 8B-/	2ryy	.	2dd^^/	.	2dn^^/	2dn\	.	2BB-^^/	2BB-\	.	2b-^^\	.	2d^^/	.	2b- 2a-^^\	.	2dd^^\	.	2bb-^^\	.	2aa- 2ddn^^\	.	2dddn\	.	2ddn^^\	.
.	.	8Rcc\	.	.	.	.	.	.	.	.	.	.	.	.	.	.	16b-L 16B-/	.	.	.	.	.	.	.	.	.	.	.	.	.	.	.	.	.	.	.	.	.	.	.	.	.	.
.	.	.	.	.	.	.	.	.	.	.	.	.	.	.	.	.	16b-JJ 16B-/	.	.	.	.	.	.	.	.	.	.	.	.	.	.	.	.	.	.	.	.	.	.	.	.	.	.
*	*	*	*	*	*	*	*	*	*	*	*	*	*	*	*	*	*tremolo	*	*	*	*	*	*	*	*	*	*	*	*	*	*	*	*	*	*	*	*	*	*	*	*	*	*
4r	.	8Rcc\	.	.	.	.	.	.	.	.	.	.	.	.	.	.	8b-L 8B-/	.	.	.	.	.	.	.	.	.	.	.	.	.	.	.	.	.	.	.	.	.	.	.	.	.	.
.	.	8Rcc\J	.	.	.	.	.	.	.	.	.	.	.	.	.	.	8b-J 8B-/	.	.	.	.	.	.	.	.	.	.	.	.	.	.	.	.	.	.	.	.	.	.	.	.	.	.
*	*	*	*	*	*	*	*	*	*	*	*	*	*	*	*	*	*Xtremolo	*	*	*	*	*	*	*	*	*	*	*	*	*	*	*	*	*	*	*	*	*	*	*	*	*	*
*	*	*	*	*	*	*	*	*	*	*	*	*v	*v	*	*	*	*v	*v	*	*	*	*	*	*	*v	*v	*	*	*	*	*	*	*	*	*	*	*	*	*	*	*	*	*
=	=	=	=	=	=	=	=	=	=	=	=	=	=	=	=	=	=	=	=	=	=	=	=	=	=	=	=	=	=	=	=	=	=	=	=	=	=	=	=	=
*	*	*tremolo	*	*	*	*	*	*	*	*	*	*	*	*	*	*	*	*	*	*	*	*	*	*	*	*	*	*	*	*	*	*	*	*	*	*	*	*	*	*
4Ra/	.	32Rcc\LLL	.	4EE-^^/	.	2e- 2G^^\	.	4E- 4EE-^^/	.	2E-^^\	.	2G 2E-^^/	.	2e- 2B-^^/	.	2b- 2B-^^/	.	2ee-^^\	.	2e-^^/	2e-\	.	4EE-/	.	2g^^/	.	2e-^^\	.	2b- 2g^^\	.	2ee-^^\	.	2bb-^^\	.	2gg 2ee-^^\	.	2eee-^^\	.	2ee-^^\	.
.	.	32Rcc\	.	.	.	.	.	.	.	.	.	.	.	.	.	.	.	.	.	.	.	.	.	.	.	.	.	.	.	.	.	.	.	.	.	.	.	.	.	.
.	.	32Rcc\	.	.	.	.	.	.	.	.	.	.	.	.	.	.	.	.	.	.	.	.	.	.	.	.	.	.	.	.	.	.	.	.	.	.	.	.	.	.
.	.	32Rcc\	.	.	.	.	.	.	.	.	.	.	.	.	.	.	.	.	.	.	.	.	.	.	.	.	.	.	.	.	.	.	.	.	.	.	.	.	.	.
.	.	32Rcc\	.	.	.	.	.	.	.	.	.	.	.	.	.	.	.	.	.	.	.	.	.	.	.	.	.	.	.	.	.	.	.	.	.	.	.	.	.	.
.	.	32Rcc\	.	.	.	.	.	.	.	.	.	.	.	.	.	.	.	.	.	.	.	.	.	.	.	.	.	.	.	.	.	.	.	.	.	.	.	.	.	.
.	.	32Rcc\	.	.	.	.	.	.	.	.	.	.	.	.	.	.	.	.	.	.	.	.	.	.	.	.	.	.	.	.	.	.	.	.	.	.	.	.	.	.
.	.	32Rcc\	.	.	.	.	.	.	.	.	.	.	.	.	.	.	.	.	.	.	.	.	.	.	.	.	.	.	.	.	.	.	.	.	.	.	.	.	.	.
4Ra/	.	32Rcc\	.	8.BB-/L	.	.	.	8.BB-L 8.BBB-/	.	.	.	.	.	.	.	.	.	.	.	.	.	.	8.BB-/L	.	.	.	.	.	.	.	.	.	.	.	.	.	.	.	.	.
.	.	32Rcc\	.	.	.	.	.	.	.	.	.	.	.	.	.	.	.	.	.	.	.	.	.	.	.	.	.	.	.	.	.	.	.	.	.	.	.	.	.	.
.	.	32Rcc\	.	.	.	.	.	.	.	.	.	.	.	.	.	.	.	.	.	.	.	.	.	.	.	.	.	.	.	.	.	.	.	.	.	.	.	.	.	.
.	.	32Rcc\	.	.	.	.	.	.	.	.	.	.	.	.	.	.	.	.	.	.	.	.	.	.	.	.	.	.	.	.	.	.	.	.	.	.	.	.	.	.
.	.	32Rcc\	.	.	.	.	.	.	.	.	.	.	.	.	.	.	.	.	.	.	.	.	.	.	.	.	.	.	.	.	.	.	.	.	.	.	.	.	.	.
.	.	32Rcc\	.	.	.	.	.	.	.	.	.	.	.	.	.	.	.	.	.	.	.	.	.	.	.	.	.	.	.	.	.	.	.	.	.	.	.	.	.	.
.	.	32Rcc\	.	16BB-/Jk	.	.	.	16BB-Jk 16BBB-/	.	.	.	.	.	.	.	.	.	.	.	.	.	.	16BB-/Jk	.	.	.	.	.	.	.	.	.	.	.	.	.	.	.	.	.
.	.	32Rcc\JJJ	.	.	.	.	.	.	.	.	.	.	.	.	.	.	.	.	.	.	.	.	.	.	.	.	.	.	.	.	.	.	.	.	.	.	.	.	.	.
*	*	*Xtremolo	*	*	*	*	*	*	*	*	*	*	*	*	*	*	*	*	*	*	*	*	*	*	*	*	*	*	*	*	*	*	*	*	*	*	*	*	*	*
4Ra/	.	8Rcc\	.	4E-\	.	4r	.	4E- 4EE-/	.	4r	.	4r	.	4r	.	4r	.	4r	.	4r	4ryy	.	4EE-/	.	4r	.	4r	.	4r	.	4r	.	4r	.	4r	.	4r	.	4r	.
.	.	8r	.	.	.	.	.	.	.	.	.	.	.	.	.	.	.	.	.	.	.	.	.	.	.	.	.	.	.	.	.	.	.	.	.	.	.	.	.	.
=16!|:	=16!|:	=16!|:	=16!|:	=16!|:	=16!|:	=16!|:	=16!|:	=16!|:	=16!|:	=16!|:	=16!|:	=16!|:	=16!|:	=16!|:	=16!|:	=16!|:	=16!|:	=16!|:	=16!|:	=16!|:	=16!|:	=16!|:	=16!|:	=16!|:	=16!|:	=16!|:	=16!|:	=16!|:	=16!|:	=16!|:	=16!|:	=16!|:	=16!|:	=16!|:	=16!|:	=16!|:	=16!|:	=16!|:	=16!|:	=16!|:
*>B	*>B	*>B	*>B	*>B	*>B	*>B	*>B	*>B	*>B	*>B	*>B	*>B	*>B	*>B	*>B	*>B	*>B	*>B	*>B	*>B	*>B	*>B	*>B	*>B	*>B	*>B	*>B	*>B	*>B	*>B	*>B	*>B	*>B	*>B	*>B	*>B	*>B	*>B	*>B	*>B
*	*	*	*	*	*	*^	*	*	*	*	*	*	*	*	*	*	*	*	*	*	*	*	*	*	*	*	*	*	*^	*	*	*	*	*	*	*	*	*	*	*
!	!	!	!	!	!	!	!	!	!	!	!	!	!	!	!	!	!	!	!	!LO:DY:rj	!	!	!LO:DY:rj	!	!	!	!LO:DY:rj	!	!LO:DY:rj	!	!	!LO:DY:rj	!	!LO:DY:rj	!	!LO:DY:rj	!	!LO:DY:rj	!	!LO:DY:rj	!	!LO:DY:rj
4r	.	4r	.	4r	.	(8G/L	(8G\L	f	4r	.	(8G\L	f	4r	.	4r	.	4r	.	(8g/L	f	(8g/L	(8g\L	f	4r	.	(8g/L	f	(8g\L	f	(<8g/L	(>8g\L	f	(8gg\L	f	(8gg\L	f	(8gg\L	f	(8gg\L	f	(8gg\L	f
.	.	.	.	.	.	8F/J	8F\J	.	.	.	8F\J	.	.	.	.	.	.	.	8f/J	.	8f/J	8f\J	.	.	.	8f/J	.	8f\J	.	8f/J	8f\J	.	8ff\J	.	8ff\J	.	8ff\J	.	8ff\J	.	8ff\J	.
=17	=17	=17	=17	=17	=17	=17	=17	=17	=17	=17	=17	=17	=17	=17	=17	=17	=17	=17	=17	=17	=17	=17	=17	=17	=17	=17	=17	=17	=17	=17	=17	=17	=17	=17	=17	=17	=17	=17	=17	=17	=17	=17
*	*	*	*	*	*	*	*	*	*	*	*	*	*	*	*^	*	*	*	*	*	*	*	*	*	*	*	*	*	*	*	*	*	*	*	*	*	*	*	*	*	*	*
*	*	*tremolo	*	*	*	*	*	*	*	*	*	*	*	*	*	*	*	*	*	*	*	*	*	*	*	*	*	*	*	*	*	*	*	*	*	*	*	*	*	*	*	*	*
!	!LO:DY:rj	!	!LO:DY:rj	!	!LO:DY:rj	!	!	!	!	!LO:DY:rj	!	!	!	!	!	!	!	!	!	!	!	!	!	!	!	!LO:DY:rj	!	!	!	!	!	!	!	!	!	!	!	!	!	!	!	!	!
4Ra/	f	32Rcc\LLL	f	4E-\	f	4E-/)	4E-\)	.	4E- 4EE-/	f	4E-\)	.	4r	.	4r	4ryy	.	4r	.	4e-/)	.	4e-/)	4e-\)	.	4E- 4EE-/	f	4e-/)	.	4e-\)	.	4e-/))	4e-\)	.	4ee-\)	.	4ee-\)	.	4ee-\)	.	4ee-\)	.	4ee-\)	.
.	.	32Rcc\	.	.	.	.	.	.	.	.	.	.	.	.	.	.	.	.	.	.	.	.	.	.	.	.	.	.	.	.	.	.	.	.	.	.	.	.	.	.	.	.	.
.	.	32Rcc\	.	.	.	.	.	.	.	.	.	.	.	.	.	.	.	.	.	.	.	.	.	.	.	.	.	.	.	.	.	.	.	.	.	.	.	.	.	.	.	.	.
.	.	32Rcc\	.	.	.	.	.	.	.	.	.	.	.	.	.	.	.	.	.	.	.	.	.	.	.	.	.	.	.	.	.	.	.	.	.	.	.	.	.	.	.	.	.
.	.	32Rcc\	.	.	.	.	.	.	.	.	.	.	.	.	.	.	.	.	.	.	.	.	.	.	.	.	.	.	.	.	.	.	.	.	.	.	.	.	.	.	.	.	.
.	.	32Rcc\	.	.	.	.	.	.	.	.	.	.	.	.	.	.	.	.	.	.	.	.	.	.	.	.	.	.	.	.	.	.	.	.	.	.	.	.	.	.	.	.	.
.	.	32Rcc\	.	.	.	.	.	.	.	.	.	.	.	.	.	.	.	.	.	.	.	.	.	.	.	.	.	.	.	.	.	.	.	.	.	.	.	.	.	.	.	.	.
.	.	32Rcc\	.	.	.	.	.	.	.	.	.	.	.	.	.	.	.	.	.	.	.	.	.	.	.	.	.	.	.	.	.	.	.	.	.	.	.	.	.	.	.	.	.
!	!	!	!	!	!	!	!	!	!	!	!	!	!	!LO:DY:rj	!	!	!LO:DY:rj	!	!LO:DY:rj	!	!	!	!	!	!	!	!	!	!	!	!	!	!	!	!	!	!	!	!	!	!	!	!
4r	.	32Rcc\	.	4F\	.	4d- 4G\	2.ryy	.	4r	.	4d-\	.	4G 4F/	f	4d-/	4d-\	f	4g 4f/	f	4dd-/	.	4dd-/	4dd-\	.	4r	.	4r	.	4r	.	4ff/	4ff\	.	4gg\	.	4ddd-\	.	4gg 4ff\	.	4ddd-\	.	4ddd-\	.
.	.	32Rcc\	.	.	.	.	.	.	.	.	.	.	.	.	.	.	.	.	.	.	.	.	.	.	.	.	.	.	.	.	.	.	.	.	.	.	.	.	.	.	.	.	.
.	.	32Rcc\	.	.	.	.	.	.	.	.	.	.	.	.	.	.	.	.	.	.	.	.	.	.	.	.	.	.	.	.	.	.	.	.	.	.	.	.	.	.	.	.	.
.	.	32Rcc\	.	.	.	.	.	.	.	.	.	.	.	.	.	.	.	.	.	.	.	.	.	.	.	.	.	.	.	.	.	.	.	.	.	.	.	.	.	.	.	.	.
.	.	32Rcc\	.	.	.	.	.	.	.	.	.	.	.	.	.	.	.	.	.	.	.	.	.	.	.	.	.	.	.	.	.	.	.	.	.	.	.	.	.	.	.	.	.
.	.	32Rcc\	.	.	.	.	.	.	.	.	.	.	.	.	.	.	.	.	.	.	.	.	.	.	.	.	.	.	.	.	.	.	.	.	.	.	.	.	.	.	.	.	.
.	.	32Rcc\	.	.	.	.	.	.	.	.	.	.	.	.	.	.	.	.	.	.	.	.	.	.	.	.	.	.	.	.	.	.	.	.	.	.	.	.	.	.	.	.	.
.	.	32Rcc\	.	.	.	.	.	.	.	.	.	.	.	.	.	.	.	.	.	.	.	.	.	.	.	.	.	.	.	.	.	.	.	.	.	.	.	.	.	.	.	.	.
4r	.	32Rcc\	.	4E-\	.	4c 4G\	.	.	4r	.	4c\	.	4G 4E-/	.	4c/	4c\	.	4g 4e-/	.	4cc/	.	4cc/	4cc\	.	4r	.	4r	.	4r	.	4ee-/	4ee-\	.	4gg\	.	4ccc\	.	4gg 4ee-\	.	4ccc\	.	4ccc\	.
.	.	32Rcc\	.	.	.	.	.	.	.	.	.	.	.	.	.	.	.	.	.	.	.	.	.	.	.	.	.	.	.	.	.	.	.	.	.	.	.	.	.	.	.	.	.
.	.	32Rcc\	.	.	.	.	.	.	.	.	.	.	.	.	.	.	.	.	.	.	.	.	.	.	.	.	.	.	.	.	.	.	.	.	.	.	.	.	.	.	.	.	.
.	.	32Rcc\	.	.	.	.	.	.	.	.	.	.	.	.	.	.	.	.	.	.	.	.	.	.	.	.	.	.	.	.	.	.	.	.	.	.	.	.	.	.	.	.	.
.	.	32Rcc\	.	.	.	.	.	.	.	.	.	.	.	.	.	.	.	.	.	.	.	.	.	.	.	.	.	.	.	.	.	.	.	.	.	.	.	.	.	.	.	.	.
.	.	32Rcc\	.	.	.	.	.	.	.	.	.	.	.	.	.	.	.	.	.	.	.	.	.	.	.	.	.	.	.	.	.	.	.	.	.	.	.	.	.	.	.	.	.
.	.	32Rcc\	.	.	.	.	.	.	.	.	.	.	.	.	.	.	.	.	.	.	.	.	.	.	.	.	.	.	.	.	.	.	.	.	.	.	.	.	.	.	.	.	.
.	.	32Rcc\	.	.	.	.	.	.	.	.	.	.	.	.	.	.	.	.	.	.	.	.	.	.	.	.	.	.	.	.	.	.	.	.	.	.	.	.	.	.	.	.	.
4Ra/	.	32Rcc\	.	4E-\	.	4d- 4G\	.	.	4E- 4EE-/	.	4B-\	.	4G 4E-/	.	4e- 4d-\	4ryy	.	4g 4d-/	.	4b-/	.	4b-/	4b-\	.	4E- 4EE-/	.	4g/	.	4d-/	.	4dd-/	4dd-\	.	4gg\	.	4bb-\	.	4gg 4dd-\	.	4bb-\	.	4bb-\	.
.	.	32Rcc\	.	.	.	.	.	.	.	.	.	.	.	.	.	.	.	.	.	.	.	.	.	.	.	.	.	.	.	.	.	.	.	.	.	.	.	.	.	.	.	.	.
.	.	32Rcc\	.	.	.	.	.	.	.	.	.	.	.	.	.	.	.	.	.	.	.	.	.	.	.	.	.	.	.	.	.	.	.	.	.	.	.	.	.	.	.	.	.
.	.	32Rcc\	.	.	.	.	.	.	.	.	.	.	.	.	.	.	.	.	.	.	.	.	.	.	.	.	.	.	.	.	.	.	.	.	.	.	.	.	.	.	.	.	.
.	.	32Rcc\	.	.	.	.	.	.	.	.	.	.	.	.	.	.	.	.	.	.	.	.	.	.	.	.	.	.	.	.	.	.	.	.	.	.	.	.	.	.	.	.	.
.	.	32Rcc\	.	.	.	.	.	.	.	.	.	.	.	.	.	.	.	.	.	.	.	.	.	.	.	.	.	.	.	.	.	.	.	.	.	.	.	.	.	.	.	.	.
.	.	32Rcc\	.	.	.	.	.	.	.	.	.	.	.	.	.	.	.	.	.	.	.	.	.	.	.	.	.	.	.	.	.	.	.	.	.	.	.	.	.	.	.	.	.
.	.	32Rcc\JJJ	.	.	.	.	.	.	.	.	.	.	.	.	.	.	.	.	.	.	.	.	.	.	.	.	.	.	.	.	.	.	.	.	.	.	.	.	.	.	.	.	.
*	*	*Xtremolo	*	*	*	*	*	*	*	*	*	*	*	*	*	*	*	*	*	*	*	*	*	*	*	*	*	*	*	*	*	*	*	*	*	*	*	*	*	*	*	*	*
!!LO:PB:g=original
=18	=18	=18	=18	=18	=18	=18	=18	=18	=18	=18	=18	=18	=18	=18	=18	=18	=18	=18	=18	=18	=18	=18	=18	=18	=18	=18	=18	=18	=18	=18	=18	=18	=18	=18	=18	=18	=18	=18	=18	=18	=18	=18	=18
*	*	*	*	*	*	*	*	*	*	*	*	*	*^	*	*	*	*	*	*	*	*	*	*	*	*^	*	*	*	*	*	*	*	*	*	*	*	*	*^	*	*	*	*	*
4Ra/	.	8Rcc\L	.	4.AA-/	.	4.c 4.A-\	2.ryy	.	4.AA- 4.AAA-/	.	4.c\	.	(4.A-/	2.E-\	.	2.e-/	(4.c\	.	4.a- 4.c/	.	4.cc/	.	4.cc/	4.cc\	.	4.AA-/	4.AA-\	.	4.a-/	.	4.c/	.	4.cc/	4.cc\	.	4.aa-\	.	4.ccc\	.	4.aa- 4.cc\	2.ryy	.	4.ccc\	.	4.ccc\	.
.	.	16Rcc\L	.	.	.	.	.	.	.	.	.	.	.	.	.	.	.	.	.	.	.	.	.	.	.	.	.	.	.	.	.	.	.	.	.	.	.	.	.	.	.	.	.	.	.	.
.	.	16Rcc\JJ	.	.	.	.	.	.	.	.	.	.	.	.	.	.	.	.	.	.	.	.	.	.	.	.	.	.	.	.	.	.	.	.	.	.	.	.	.	.	.	.	.	.	.	.
4r	.	8Rcc\L	.	.	.	.	.	.	.	.	.	.	.	.	.	.	.	.	.	.	.	.	.	.	.	.	.	.	.	.	.	.	.	.	.	.	.	.	.	.	.	.	.	.	.	.
.	.	8Rcc\J	.	8BB-/	.	8d- 8G\	.	.	8BB- 8BBB-/	.	8G\	.	8G/	.	.	.	8d-\	.	8e- 8d-/	.	8g/	.	8g/	8g\	.	8BB-/	8BB-\	.	8g/	.	8e-\	.	8ee- 8dd-\	4.ryy	.	8gg\	.	8gg\	.	8ee- 8dd-\	.	.	8gg\	.	8gg\	.
2r	.	4Rcc\	.	4C/	.	4c 4A-\	.	.	4C 4CC/	.	4A-\	.	4A-/)	.	.	.	4c\)	.	4e- 4c/	.	4a-/	.	4a-/	4a-\	.	4C 4CC/	2ryy	.	4a-/	.	4e-\	.	4ee- 4cc\	.	.	4aa-\	.	4aa-\	.	4ee- 4cc\	.	.	4aa-\	.	4aa-\	.
.	.	4r	.	4D-\	.	4A-/	4A-\	.	4D- 4DD-/	.	(8G\L	.	(4A-/	(4A-\	.	(8gL 8e-\	4ryy	.	(8e-/L	.	(8g/L	.	(8gL (8e-/	4ryy	.	4D- 4DD-/	.	.	(8ee-\L	.	(8g\L	.	(8ee-/L	4a-\	.	(8gg\L	.	(8gg\L	.	(8ee-/L	4a-\	.	(8gg\L	.	(8gg\L	.
.	.	.	.	.	.	.	.	.	.	.	8F\J	.	.	.	.	8fJ 8d-\)	.	.	8d-/J)	.	8f/J	.	8fJ [8d-/	.	.	.	.	.	8dd-\J)	.	8f\J	.	8dd-/J)	.	.	8ff\J	.	8ff\J	.	8dd-/J)	.	.	8ff\J	.	8ff\J	.
*	*	*	*	*	*	*	*	*	*	*	*	*	*	*	*	*	*	*	*	*	*	*	*v	*v	*	*	*	*	*	*	*	*	*	*	*	*	*	*	*	*	*	*	*	*	*	*
*	*	*	*	*	*	*	*	*	*	*	*	*	*	*	*	*	*	*	*	*	*	*	*	*	*v	*v	*	*	*	*	*	*	*	*	*	*	*	*	*	*	*	*	*	*	*
=19	=19	=19	=19	=19	=19	=19	=19	=19	=19	=19	=19	=19	=19	=19	=19	=19	=19	=19	=19	=19	=19	=19	=19	=19	=19	=19	=19	=19	=19	=19	=19	=19	=19	=19	=19	=19	=19	=19	=19	=19	=19	=19	=19	=19
*	*	*	*	*	*	*	*	*	*	*	*	*	*	*	*	*	*	*	*^	*	*	*	*	*	*	*	*	*	*	*	*	*	*	*	*	*	*	*	*	*	*	*	*	*
1r	.	1r	.	2.E-\	.	4d- 4G\	2.ryy	.	2.E- 2.EE-/	.	4E-\)	.	4G/)	4G\)	.	4e- 4d-\	2.ryy	.	4d-/	2.ryy	.	4e-/)	.	4e- 4d-/]))	.	2.E- 2.EE-/	.	4dd-\	.	4e-\)	.	4dd-/	4g\	.	4ee-\)	.	4ee-\)	.	4dd-/	4g\	.	4ee-\)	.	4ee-\)	.
.	.	.	.	.	.	(8e-L 8d-\	.	.	.	.	(8G\L	.	(8d-/L	2.ryy	.	(8gL 8e-\	.	.	(8e-L (8d-/	.	.	(8g/L	.	(8gL 8e-/	.	.	.	(8dd-\L	.	(8e-\L	.	(8dd-L (8g\	4ryy	.	(8ee-\L	.	(8gg\L	.	(8ee-L 8dd-\	2ryy	.	(8gg\L	.	(8gg\L	.
.	.	.	.	.	.	8fJ 8c\	.	.	.	.	8A-\J	.	8c/J	.	.	8a-J 8f\	.	.	8fJ 8c/	.	.	8a-/J	.	8a-J 8f/	.	.	.	8cc\J	.	8f\J	.	8ccJ 8a-\	.	.	8ff\J	.	8aa-\J	.	8ffJ 8cc\	.	.	8aa-\J	.	8aa-\J	.
.	.	.	.	.	.	4g 4B-\)	.	.	.	.	4B-\)	.	4B-/)	.	.	4b- 4g\)	.	.	4g 4B-/))	.	.	4b-/)	.	4b- 4g/)	.	.	.	4b-\)	.	4g\)	.	4b-/))	4b-\	.	4gg\)	.	4bb-\)	.	4gg 4b-\)	.	.	4bb-\)	.	4bb-\)	.
.	.	.	.	4E-\	.	8c/L	4G\	.	4E- 4EE-/	.	(8c\L	.	(8e-L 8c/	.	.	4g/	4g\	.	(4g/	(8e-\L	.	(8cc/L	.	(8ccL 8e-/	.	4E- 4EE-/	.	(8ee-\L	.	4g\	.	4ee-/	(8cc\L	.	[4gg\	.	(8ccc\L	.	(4gg/	(8ee-\L	.	(8ccc\L	.	(8ccc\L	.
.	.	.	.	.	.	8B-/J	.	.	.	.	8B-\J	.	8d-J 8B-/)	.	.	.	.	.	.	8d-\J	.	8b-/J	.	8b-J 8d-/	.	.	.	8dd-\J	.	.	.	.	8b-\J)	.	.	.	8bb-\J	.	.	8dd-\J	.	8bb-\J	.	8bb-\J	.
*	*	*	*	*	*	*	*	*	*	*	*	*	*v	*v	*	*	*	*	*v	*v	*	*	*	*	*	*	*	*	*	*	*	*	*	*	*	*	*	*	*v	*v	*	*	*	*	*
=20	=20	=20	=20	=20	=20	=20	=20	=20	=20	=20	=20	=20	=20	=20	=20	=20	=20	=20	=20	=20	=20	=20	=20	=20	=20	=20	=20	=20	=20	=20	=20	=20	=20	=20	=20	=20	=20	=20	=20	=20	=20	=20
*	*	*tremolo	*	*	*	*	*	*	*	*	*	*	*	*	*	*	*	*	*	*	*	*	*	*	*	*	*	*	*	*	*	*	*	*	*	*	*	*	*	*	*	*
4Ra/	.	32Rcc\LLL	.	2AA-/	.	4B-/	2E-\	.	2AA- 2AAA-/	.	4G\)	.	4d- 4B-/	.	4g/	4g\	.	4d- 4B-/))	.	4g/)	.	4g 4B-/)	.	2E- 2AA-/	.	4b-\)	.	4d-/	.	4dd-/	4b-\	.	4gg\]	.	4gg\)	.	4dd- 4b-\))	.	4gg\)	.	4gg\)	.
.	.	32Rcc\	.	.	.	.	.	.	.	.	.	.	.	.	.	.	.	.	.	.	.	.	.	.	.	.	.	.	.	.	.	.	.	.	.	.	.	.	.	.	.	.
.	.	32Rcc\	.	.	.	.	.	.	.	.	.	.	.	.	.	.	.	.	.	.	.	.	.	.	.	.	.	.	.	.	.	.	.	.	.	.	.	.	.	.	.	.
.	.	32Rcc\	.	.	.	.	.	.	.	.	.	.	.	.	.	.	.	.	.	.	.	.	.	.	.	.	.	.	.	.	.	.	.	.	.	.	.	.	.	.	.	.
.	.	32Rcc\	.	.	.	.	.	.	.	.	.	.	.	.	.	.	.	.	.	.	.	.	.	.	.	.	.	.	.	.	.	.	.	.	.	.	.	.	.	.	.	.
.	.	32Rcc\	.	.	.	.	.	.	.	.	.	.	.	.	.	.	.	.	.	.	.	.	.	.	.	.	.	.	.	.	.	.	.	.	.	.	.	.	.	.	.	.
.	.	32Rcc\	.	.	.	.	.	.	.	.	.	.	.	.	.	.	.	.	.	.	.	.	.	.	.	.	.	.	.	.	.	.	.	.	.	.	.	.	.	.	.	.
.	.	32Rcc\JJJ	.	.	.	.	.	.	.	.	.	.	.	.	.	.	.	.	.	.	.	.	.	.	.	.	.	.	.	.	.	.	.	.	.	.	.	.	.	.	.	.
4r	.	8Rcc\	.	.	.	4c/	.	.	.	.	4A-\	.	4e- 4c/	.	4a-/	4a-\	.	4e- 4c/	.	4a-/	.	4a- 4c/	.	.	.	4cc\	.	4e-\	.	4ee- 4cc\	2.ryy	.	4aa-\	.	4aa-\	.	4ee- 4cc\	.	4aa-\	.	4aa-\	.
.	.	8r	.	.	.	.	.	.	.	.	.	.	.	.	.	.	.	.	.	.	.	.	.	.	.	.	.	.	.	.	.	.	.	.	.	.	.	.	.	.	.	.
2r	.	2r	.	2r	.	2r	2ryy	.	2r	.	8r	.	2r	.	2r	2ryy	.	8r	.	8r	.	8r	.	2r	.	8r	.	8r	.	8r	.	.	8r	.	8r	.	8r	.	8r	.	8r	.
.	.	.	.	.	.	.	.	.	.	.	(8G\L	.	.	.	.	.	.	(8g/L	.	(8g/L	.	(8gL 8G/	.	.	.	(8g/L	.	(8G/L	.	(8g/L	.	.	(8gg\L	.	(8gg\L	.	(8gg\L	.	(8gg\L	.	(8gg'\L	.
.	.	.	.	.	.	.	.	.	.	.	8A-\	.	.	.	.	.	.	8a- 8f/	.	8a-/	.	8a- 8A-/	.	.	.	8f/	.	8A-/	.	8a- 8f/	.	.	8ff\	.	8aa-\	.	8ff'\	.	8aa-\	.	8aa-'\	.
.	.	.	.	.	.	.	.	.	.	.	8B-\J)	.	.	.	.	.	.	8b-J 8g/)	.	8b-/J)	.	8b-J 8B-/)	.	.	.	8g/J)	.	8B-/J)	.	8b-J 8g/)	.	.	8gg\J)	.	8bb-\J)	.	8gg\J)	.	8bb-\J)	.	8bb-'\J)	.
*	*	*	*	*	*	*v	*v	*	*	*	*	*	*	*	*v	*v	*	*	*	*	*	*	*	*	*	*	*	*	*	*v	*v	*	*	*	*	*	*	*	*	*	*	*
=21	=21	=21	=21	=21	=21	=21	=21	=21	=21	=21	=21	=21	=21	=21	=21	=21	=21	=21	=21	=21	=21	=21	=21	=21	=21	=21	=21	=21	=21	=21	=21	=21	=21	=21	=21	=21	=21	=21	=21
*	*	*	*	*	*	*	*	*	*	*	*	*	*	*	*	*^	*	*	*	*^	*	*^	*	*	*	*	*	*	*	*	*	*	*	*	*	*	*	*	*
4Ra/	.	32Rcc\LLL	.	2FF/	.	2c 2A-\	.	2F 2FF/	.	(4.c^^\	.	2c 2A-/	.	2a- 2f\	.	(>4.a- 4.f^^/	4.ryy	.	(4.cc^^/	.	(>4.cc (4.c^^/	4.ryy	.	2FF^^/	2FF\	.	4a-^^/	.	4c^^/	.	2cc 2a-^^\	.	(4.aa-^^\	.	(4.ccc^^\	.	(4.aa- 4.ff^^\	.	(4.ccc^^\	.	(4.ccc^^\	.
.	.	32Rcc\	.	.	.	.	.	.	.	.	.	.	.	.	.	.	.	.	.	.	.	.	.	.	.	.	.	.	.	.	.	.	.	.	.	.	.	.	.	.	.	.
.	.	32Rcc\	.	.	.	.	.	.	.	.	.	.	.	.	.	.	.	.	.	.	.	.	.	.	.	.	.	.	.	.	.	.	.	.	.	.	.	.	.	.	.	.
.	.	32Rcc\	.	.	.	.	.	.	.	.	.	.	.	.	.	.	.	.	.	.	.	.	.	.	.	.	.	.	.	.	.	.	.	.	.	.	.	.	.	.	.	.
.	.	32Rcc\	.	.	.	.	.	.	.	.	.	.	.	.	.	.	.	.	.	.	.	.	.	.	.	.	.	.	.	.	.	.	.	.	.	.	.	.	.	.	.	.
.	.	32Rcc\	.	.	.	.	.	.	.	.	.	.	.	.	.	.	.	.	.	.	.	.	.	.	.	.	.	.	.	.	.	.	.	.	.	.	.	.	.	.	.	.
.	.	32Rcc\	.	.	.	.	.	.	.	.	.	.	.	.	.	.	.	.	.	.	.	.	.	.	.	.	.	.	.	.	.	.	.	.	.	.	.	.	.	.	.	.
.	.	32Rcc\	.	.	.	.	.	.	.	.	.	.	.	.	.	.	.	.	.	.	.	.	.	.	.	.	.	.	.	.	.	.	.	.	.	.	.	.	.	.	.	.
4r	.	32Rcc\	.	.	.	.	.	.	.	.	.	.	.	.	.	.	.	.	.	.	.	.	.	.	.	.	4r	.	4r	.	.	.	.	.	.	.	.	.	.	.	.	.
.	.	32Rcc\	.	.	.	.	.	.	.	.	.	.	.	.	.	.	.	.	.	.	.	.	.	.	.	.	.	.	.	.	.	.	.	.	.	.	.	.	.	.	.	.
.	.	32Rcc\	.	.	.	.	.	.	.	.	.	.	.	.	.	.	.	.	.	.	.	.	.	.	.	.	.	.	.	.	.	.	.	.	.	.	.	.	.	.	.	.
.	.	32Rcc\	.	.	.	.	.	.	.	.	.	.	.	.	.	.	.	.	.	.	.	.	.	.	.	.	.	.	.	.	.	.	.	.	.	.	.	.	.	.	.	.
.	.	32Rcc\	.	.	.	.	.	.	.	8F\	.	.	.	.	.	8f/)	8f\	.	8f/	.	8f/)	8f\	.	.	.	.	.	.	.	.	.	.	8ff\	.	8ff\	.	8cc 8a-\	.	8ff\	.	8ff\	.
.	.	32Rcc\	.	.	.	.	.	.	.	.	.	.	.	.	.	.	.	.	.	.	.	.	.	.	.	.	.	.	.	.	.	.	.	.	.	.	.	.	.	.	.	.
.	.	32Rcc\	.	.	.	.	.	.	.	.	.	.	.	.	.	.	.	.	.	.	.	.	.	.	.	.	.	.	.	.	.	.	.	.	.	.	.	.	.	.	.	.
.	.	32Rcc\	.	.	.	.	.	.	.	.	.	.	.	.	.	.	.	.	.	.	.	.	.	.	.	.	.	.	.	.	.	.	.	.	.	.	.	.	.	.	.	.
2r	.	32Rcc\	.	4BB-/	.	4d- 4G\	.	4BB- 4BBB-/	.	4G\)	.	4B- 4G/	.	4g 4f\	.	4f 4d-/	2ryy	.	4g/)	.	4f 4e-/)	2ryy	.	4BB-/	4BB-\	.	4dd-\	.	4g\	.	4ff 4dd-\	.	4gg\)	.	4gg\)	.	4ff 4dd-\)	.	4gg\)	.	4gg\)	.
.	.	32Rcc\	.	.	.	.	.	.	.	.	.	.	.	.	.	.	.	.	.	.	.	.	.	.	.	.	.	.	.	.	.	.	.	.	.	.	.	.	.	.	.	.
.	.	32Rcc\	.	.	.	.	.	.	.	.	.	.	.	.	.	.	.	.	.	.	.	.	.	.	.	.	.	.	.	.	.	.	.	.	.	.	.	.	.	.	.	.
.	.	32Rcc\	.	.	.	.	.	.	.	.	.	.	.	.	.	.	.	.	.	.	.	.	.	.	.	.	.	.	.	.	.	.	.	.	.	.	.	.	.	.	.	.
.	.	32Rcc\	.	.	.	.	.	.	.	.	.	.	.	.	.	.	.	.	.	.	.	.	.	.	.	.	.	.	.	.	.	.	.	.	.	.	.	.	.	.	.	.
.	.	32Rcc\	.	.	.	.	.	.	.	.	.	.	.	.	.	.	.	.	.	.	.	.	.	.	.	.	.	.	.	.	.	.	.	.	.	.	.	.	.	.	.	.
.	.	32Rcc\	.	.	.	.	.	.	.	.	.	.	.	.	.	.	.	.	.	.	.	.	.	.	.	.	.	.	.	.	.	.	.	.	.	.	.	.	.	.	.	.
.	.	32Rcc\	.	.	.	.	.	.	.	.	.	.	.	.	.	.	.	.	.	.	.	.	.	.	.	.	.	.	.	.	.	.	.	.	.	.	.	.	.	.	.	.
.	.	32Rcc\	.	4AA-/	.	4c 4A-\	.	4AA- 4AAA-/	.	4A-\	.	4c 4A-/	.	4a- 4f\	.	4f 4c/	.	.	4a-/	.	4a- 4f/	.	.	4AA-/	4AA-\	.	4cc\	.	4a-\	.	4ff 4cc\	.	4aa-\	.	4aa-\	.	4ff 4cc\	.	4aa-\	.	4aa-\	.
.	.	32Rcc\	.	.	.	.	.	.	.	.	.	.	.	.	.	.	.	.	.	.	.	.	.	.	.	.	.	.	.	.	.	.	.	.	.	.	.	.	.	.	.	.
.	.	32Rcc\	.	.	.	.	.	.	.	.	.	.	.	.	.	.	.	.	.	.	.	.	.	.	.	.	.	.	.	.	.	.	.	.	.	.	.	.	.	.	.	.
.	.	32Rcc\	.	.	.	.	.	.	.	.	.	.	.	.	.	.	.	.	.	.	.	.	.	.	.	.	.	.	.	.	.	.	.	.	.	.	.	.	.	.	.	.
.	.	32Rcc\	.	.	.	.	.	.	.	.	.	.	.	.	.	.	.	.	.	.	.	.	.	.	.	.	.	.	.	.	.	.	.	.	.	.	.	.	.	.	.	.
.	.	32Rcc\	.	.	.	.	.	.	.	.	.	.	.	.	.	.	.	.	.	.	.	.	.	.	.	.	.	.	.	.	.	.	.	.	.	.	.	.	.	.	.	.
.	.	32Rcc\	.	.	.	.	.	.	.	.	.	.	.	.	.	.	.	.	.	.	.	.	.	.	.	.	.	.	.	.	.	.	.	.	.	.	.	.	.	.	.	.
.	.	32Rcc\JJJ	.	.	.	.	.	.	.	.	.	.	.	.	.	.	.	.	.	.	.	.	.	.	.	.	.	.	.	.	.	.	.	.	.	.	.	.	.	.	.	.
*	*	*Xtremolo	*	*	*	*	*	*	*	*	*	*	*	*	*	*	*	*	*	*	*	*	*	*	*	*	*	*	*	*	*	*	*	*	*	*	*	*	*	*	*	*
*	*	*	*	*	*	*	*	*	*	*	*	*	*	*	*	*v	*v	*	*	*	*	*	*	*	*	*	*	*	*	*	*	*	*	*	*	*	*	*	*	*	*	*
=22	=22	=22	=22	=22	=22	=22	=22	=22	=22	=22	=22	=22	=22	=22	=22	=22	=22	=22	=22	=22	=22	=22	=22	=22	=22	=22	=22	=22	=22	=22	=22	=22	=22	=22	=22	=22	=22	=22	=22	=22	=22
4r	.	8Rcc\L	.	4GG/	.	4d- 4F\	.	4GG 4GGG/	.	4B-\	.	4d- 4B-/	.	4b- 4f\	.	4f 4d-/	.	4b-/	.	4b- 4f/	4ryy	.	4GG/	2.ryy	.	4dd-\	.	4b-\	.	4ff 4dd-\	.	4bb-\	.	4bb-\	.	4ff 4dd-\	.	4bb-\	.	4bb-\	.
.	.	16Rcc\L	.	.	.	.	.	.	.	.	.	.	.	.	.	.	.	.	.	.	.	.	.	.	.	.	.	.	.	.	.	.	.	.	.	.	.	.	.	.	.
.	.	16Rcc\JJ	.	.	.	.	.	.	.	.	.	.	.	.	.	.	.	.	.	.	.	.	.	.	.	.	.	.	.	.	.	.	.	.	.	.	.	.	.	.	.
4Ra/	.	8Rcc\L	.	4C/	.	4en 4B-\	.	4C 4CC/	.	(8A-\L	.	4B- 4EX/	.	4eX 4c\	.	(4eX (4B-/	.	(8a-/L	.	(8a-/L	(4eX\	.	4C 4CC/	.	.	(4b-\	.	(8a-\L	.	(4eeX 4b-\	.	(8aa-\L	.	(8aa-\L	.	(4een 4b-\	.	(8aa-\L	.	(8aa-\L	.
.	.	8Rcc\J	.	.	.	.	.	.	.	8G\J	.	.	.	.	.	.	.	8g/J	.	8g/J	.	.	.	.	.	.	.	8g\J	.	.	.	8gg\J	.	8gg\J	.	.	.	8gg\J	.	8gg\J	.
4Ra/	.	8Rcc\	.	4D-/	.	4f 4A-\	.	4D- 4DD-/	.	4F\)	.	4A- 4F/	.	4f 4c\	.	4f 4A-/))	.	4f/)	.	4f/)	4f\)	.	4D- 4DD-/	.	.	4a-\)	.	4f\)	.	4ff 4a-\)	.	4ff\)	.	4ff\)	.	4ff 4a-\)	.	4ff\)	.	4ff\)	.
.	.	8r	.	.	.	.	.	.	.	.	.	.	.	.	.	.	.	.	.	.	.	.	.	.	.	.	.	.	.	.	.	.	.	.	.	.	.	.	.	.	.
4r	.	4r	.	8C/L	.	8A-L 8F\	.	8CL 8CC/	.	8A-\L	.	4r	.	4r	.	8f/L	.	8a-/L	.	8a-L 8f/	4ryy	.	8C/L	8C\L	.	8a-/L	.	8f\L	.	8a-L 8f/	.	8ff\L	.	8aa-\L	.	8ffL 8a-\	.	8aa-\L	.	8aa-\L	.
.	.	.	.	8BB-/J	.	8B-J 8G\	.	8BB-J 8BBB-/	.	8B-\J	.	.	.	.	.	8g/J	.	8b-/J	.	8b-J 8g/	.	.	8BB-/J	8BB-\J	.	8b-/J	.	8g\J	.	8b-J 8g/	.	8gg\J	.	8bb-\J	.	8ggJ 8b-\	.	8bb-\J	.	8bb-\J	.
=23	=23	=23	=23	=23	=23	=23	=23	=23	=23	=23	=23	=23	=23	=23	=23	=23	=23	=23	=23	=23	=23	=23	=23	=23	=23	=23	=23	=23	=23	=23	=23	=23	=23	=23	=23	=23	=23	=23	=23	=23	=23
*	*	*	*	*	*	*	*	*	*	*	*	*	*	*	*	*^	*	*	*	*	*	*	*	*	*	*	*	*	*	*	*	*	*	*	*	*^	*	*	*	*	*
*	*	*tremolo	*	*	*	*	*	*	*	*	*	*	*	*	*	*	*	*	*	*	*	*	*	*	*	*	*	*	*	*	*	*	*	*	*	*	*	*	*	*	*	*	*
4Ra/	.	32Rcc\LLL	.	2AA-/	.	2c 2F\	.	2AA- 2AAA-/	.	(4.c\	.	2c 2F/	.	2f 2c/	.	2f/	2f\	.	(4.cc/	.	(4.cc/	2.f\	.	2AA-/	2AA-\	.	2cc\	.	2.f\	.	2cc 2f/	.	2.ff\	.	(4.ccc\	.	4.ff 4.cc\	4.ryy	.	(4.ccc\	.	(4.ccc\	.
.	.	32Rcc\	.	.	.	.	.	.	.	.	.	.	.	.	.	.	.	.	.	.	.	.	.	.	.	.	.	.	.	.	.	.	.	.	.	.	.	.	.	.	.	.	.
.	.	32Rcc\	.	.	.	.	.	.	.	.	.	.	.	.	.	.	.	.	.	.	.	.	.	.	.	.	.	.	.	.	.	.	.	.	.	.	.	.	.	.	.	.	.
.	.	32Rcc\	.	.	.	.	.	.	.	.	.	.	.	.	.	.	.	.	.	.	.	.	.	.	.	.	.	.	.	.	.	.	.	.	.	.	.	.	.	.	.	.	.
.	.	32Rcc\	.	.	.	.	.	.	.	.	.	.	.	.	.	.	.	.	.	.	.	.	.	.	.	.	.	.	.	.	.	.	.	.	.	.	.	.	.	.	.	.	.
.	.	32Rcc\	.	.	.	.	.	.	.	.	.	.	.	.	.	.	.	.	.	.	.	.	.	.	.	.	.	.	.	.	.	.	.	.	.	.	.	.	.	.	.	.	.
.	.	32Rcc\	.	.	.	.	.	.	.	.	.	.	.	.	.	.	.	.	.	.	.	.	.	.	.	.	.	.	.	.	.	.	.	.	.	.	.	.	.	.	.	.	.
.	.	32Rcc\	.	.	.	.	.	.	.	.	.	.	.	.	.	.	.	.	.	.	.	.	.	.	.	.	.	.	.	.	.	.	.	.	.	.	.	.	.	.	.	.	.
4r	.	32Rcc\	.	.	.	.	.	.	.	.	.	.	.	.	.	.	.	.	.	.	.	.	.	.	.	.	.	.	.	.	.	.	.	.	.	.	.	.	.	.	.	.	.
.	.	32Rcc\	.	.	.	.	.	.	.	.	.	.	.	.	.	.	.	.	.	.	.	.	.	.	.	.	.	.	.	.	.	.	.	.	.	.	.	.	.	.	.	.	.
.	.	32Rcc\	.	.	.	.	.	.	.	.	.	.	.	.	.	.	.	.	.	.	.	.	.	.	.	.	.	.	.	.	.	.	.	.	.	.	.	.	.	.	.	.	.
.	.	32Rcc\	.	.	.	.	.	.	.	.	.	.	.	.	.	.	.	.	.	.	.	.	.	.	.	.	.	.	.	.	.	.	.	.	.	.	.	.	.	.	.	.	.
.	.	32Rcc\	.	.	.	.	.	.	.	8F\	.	.	.	.	.	.	.	.	8f/	.	8f/	.	.	.	.	.	.	.	.	.	.	.	.	.	8ff\	.	8cc/	8cc\	.	8ff\	.	8ff\	.
.	.	32Rcc\	.	.	.	.	.	.	.	.	.	.	.	.	.	.	.	.	.	.	.	.	.	.	.	.	.	.	.	.	.	.	.	.	.	.	.	.	.	.	.	.	.
.	.	32Rcc\	.	.	.	.	.	.	.	.	.	.	.	.	.	.	.	.	.	.	.	.	.	.	.	.	.	.	.	.	.	.	.	.	.	.	.	.	.	.	.	.	.
.	.	32Rcc\	.	.	.	.	.	.	.	.	.	.	.	.	.	.	.	.	.	.	.	.	.	.	.	.	.	.	.	.	.	.	.	.	.	.	.	.	.	.	.	.	.
2r	.	32Rcc\	.	4D-\	.	4B- 4G\	.	4D- 4DD-/	.	4G\)	.	4G 4F/	.	4f 4B-/	.	4f 4B-/	2ryy	.	4g/)	.	4g/)	.	.	4D- 4DD-/	2ryy	.	4b-\	.	.	.	4b- 4g/	.	.	.	4gg\)	.	4ff 4g\	2ryy	.	4gg\)	.	4gg\)	.
.	.	32Rcc\	.	.	.	.	.	.	.	.	.	.	.	.	.	.	.	.	.	.	.	.	.	.	.	.	.	.	.	.	.	.	.	.	.	.	.	.	.	.	.	.	.
.	.	32Rcc\	.	.	.	.	.	.	.	.	.	.	.	.	.	.	.	.	.	.	.	.	.	.	.	.	.	.	.	.	.	.	.	.	.	.	.	.	.	.	.	.	.
.	.	32Rcc\	.	.	.	.	.	.	.	.	.	.	.	.	.	.	.	.	.	.	.	.	.	.	.	.	.	.	.	.	.	.	.	.	.	.	.	.	.	.	.	.	.
.	.	32Rcc\	.	.	.	.	.	.	.	.	.	.	.	.	.	.	.	.	.	.	.	.	.	.	.	.	.	.	.	.	.	.	.	.	.	.	.	.	.	.	.	.	.
.	.	32Rcc\	.	.	.	.	.	.	.	.	.	.	.	.	.	.	.	.	.	.	.	.	.	.	.	.	.	.	.	.	.	.	.	.	.	.	.	.	.	.	.	.	.
.	.	32Rcc\	.	.	.	.	.	.	.	.	.	.	.	.	.	.	.	.	.	.	.	.	.	.	.	.	.	.	.	.	.	.	.	.	.	.	.	.	.	.	.	.	.
.	.	32Rcc\	.	.	.	.	.	.	.	.	.	.	.	.	.	.	.	.	.	.	.	.	.	.	.	.	.	.	.	.	.	.	.	.	.	.	.	.	.	.	.	.	.
.	.	32Rcc\	.	4C/	.	4c 4A-\	.	4C 4CC/	.	4A-\	.	4A- 4F/	.	4f 4c/	.	4f 4c/	.	.	4a-/	.	4a-/	4f\	.	4C 4CC/	.	.	4a-/	.	4f\	.	4cc 4a-\	.	4ff\	.	4aa-\	.	4ff 4cc\	.	.	4aa-\	.	4aa-\	.
.	.	32Rcc\	.	.	.	.	.	.	.	.	.	.	.	.	.	.	.	.	.	.	.	.	.	.	.	.	.	.	.	.	.	.	.	.	.	.	.	.	.	.	.	.	.
.	.	32Rcc\	.	.	.	.	.	.	.	.	.	.	.	.	.	.	.	.	.	.	.	.	.	.	.	.	.	.	.	.	.	.	.	.	.	.	.	.	.	.	.	.	.
.	.	32Rcc\	.	.	.	.	.	.	.	.	.	.	.	.	.	.	.	.	.	.	.	.	.	.	.	.	.	.	.	.	.	.	.	.	.	.	.	.	.	.	.	.	.
.	.	32Rcc\	.	.	.	.	.	.	.	.	.	.	.	.	.	.	.	.	.	.	.	.	.	.	.	.	.	.	.	.	.	.	.	.	.	.	.	.	.	.	.	.	.
.	.	32Rcc\	.	.	.	.	.	.	.	.	.	.	.	.	.	.	.	.	.	.	.	.	.	.	.	.	.	.	.	.	.	.	.	.	.	.	.	.	.	.	.	.	.
.	.	32Rcc\	.	.	.	.	.	.	.	.	.	.	.	.	.	.	.	.	.	.	.	.	.	.	.	.	.	.	.	.	.	.	.	.	.	.	.	.	.	.	.	.	.
.	.	32Rcc\JJJ	.	.	.	.	.	.	.	.	.	.	.	.	.	.	.	.	.	.	.	.	.	.	.	.	.	.	.	.	.	.	.	.	.	.	.	.	.	.	.	.	.
*	*	*Xtremolo	*	*	*	*	*	*	*	*	*	*	*	*	*	*	*	*	*	*	*	*	*	*	*	*	*	*	*	*	*	*	*	*	*	*	*	*	*	*	*	*	*
*	*	*	*	*	*	*	*	*	*	*	*	*	*	*	*	*	*	*	*	*	*v	*v	*	*	*	*	*	*	*	*	*	*	*	*	*	*	*v	*v	*	*	*	*	*
!!LO:PB:g=original
=24	=24	=24	=24	=24	=24	=24	=24	=24	=24	=24	=24	=24	=24	=24	=24	=24	=24	=24	=24	=24	=24	=24	=24	=24	=24	=24	=24	=24	=24	=24	=24	=24	=24	=24	=24	=24	=24	=24	=24	=24	=24
*	*	*	*	*	*	*^	*	*^	*	*	*	*^	*	*^	*	*	*	*	*	*	*	*	*	*	*	*	*	*	*	*^	*	*	*	*	*	*	*	*	*	*	*
4r	.	8Rcc\L	.	4BB-/	.	4d- 4F\	4ryy	.	4BB- 4BBB-/	4ryy	.	4B-\	.	4B- 4F/	4ryy	.	4f 4d-\	4ryy	.	4f 4d-/	4ryy	.	4b-/	.	4b- 4f/	.	4BB-/	4BB-\	.	4dd-\	.	4f\	.	4dd- 4b-\	4ryy	.	4ff\	.	4bb-\	.	4ff 4dd-\	.	4bb-\	.	4bb-\	.
.	.	16Rcc\L	.	.	.	.	.	.	.	.	.	.	.	.	.	.	.	.	.	.	.	.	.	.	.	.	.	.	.	.	.	.	.	.	.	.	.	.	.	.	.	.	.	.	.	.
.	.	16Rcc\JJ	.	.	.	.	.	.	.	.	.	.	.	.	.	.	.	.	.	.	.	.	.	.	.	.	.	.	.	.	.	.	.	.	.	.	.	.	.	.	.	.	.	.	.	.
4Ra/	.	8Rcc\L	.	4FF/	.	(8d-/L	(4A-\	.	4FF/	4FF\	.	(8d-\L	.	(8d-/L	(4A-\	.	(4a-/	(8d-\L	.	((4a-/	4a-\	.	(8dd-/L	.	(8dd-L 8d-/	.	4FF/	4FF\	.	(<4a-/	.	(4a-\	.	(8dd-/L	(4a-\	.	(4aa-\	.	(8ddd-\L	.	(4aa- (4a-\	.	(8ddd-\L	.	(8ddd-\L	.
.	.	8Rcc\J	.	.	.	8c/J	.	.	.	.	.	8c\J	.	8c/J	.	.	.	8c\J	.	.	.	.	8cc/J	.	8ccJ 8c/	.	.	.	.	.	.	.	.	8cc/J	.	.	.	.	8ccc\J	.	.	.	8ccc\J	.	8ccc\J	.
4Ra/	.	8Rcc\	.	4GG/	.	4B-) 4E-\)	2ryy	.	4GG/	4GG\	.	4B-\)	.	4B-/)	4E-\)	.	4e-/)	4B-\)	.	4e-/))	4e-\	.	4b-/)	.	4b- 4e-/)	.	4GG/	4GG\	.	4b-\)	.	4e-\)	.	4b-/)	4e-\)	.	4ee-\)	.	4bb-\)	.	4ee- 4e-/))	.	4bb-\)	.	4bb-\)	.
.	.	8r	.	.	.	.	.	.	.	.	.	.	.	.	.	.	.	.	.	.	.	.	.	.	.	.	.	.	.	.	.	.	.	.	.	.	.	.	.	.	.	.	.	.	.	.
4r	.	4r	.	4EE-/	.	8A-L 8F\	.	.	4E- 4EE-/	4ryy	.	8A-\L	.	4r	4ryy	.	4r	4ryy	.	8f/L	8f\L	.	8a-/L	.	8a-L 8f/	.	4E- 4EE-/	4ryy	.	8a-/L	.	8f\L	.	8a-L 8f/	4ryy	.	8ff\L	.	8aa-\L	.	8ffL 8f/	.	8aa-\L	.	8aa-\L	.
.	.	.	.	.	.	8B-J 8G\	.	.	.	.	.	8B-\J	.	.	.	.	.	.	.	8g/J	8g\J	.	8b-/J	.	8b-J 8g/	.	.	.	.	8b-/J	.	8g\J	.	8b-J 8g/	.	.	8gg\J	.	8bb-\J	.	8ggJ 8g/	.	8bb-\J	.	8bb-\J	.
*	*	*	*	*	*	*v	*v	*	*	*	*	*	*	*v	*v	*	*	*	*	*v	*v	*	*	*	*	*	*	*	*	*	*	*	*	*	*	*	*	*	*	*	*	*	*	*	*	*
*	*	*	*	*	*	*	*	*v	*v	*	*	*	*	*	*	*	*	*	*	*	*	*	*	*	*	*	*	*	*	*	*	*	*	*	*	*	*	*	*	*	*	*	*
=25	=25	=25	=25	=25	=25	=25	=25	=25	=25	=25	=25	=25	=25	=25	=25	=25	=25	=25	=25	=25	=25	=25	=25	=25	=25	=25	=25	=25	=25	=25	=25	=25	=25	=25	=25	=25	=25	=25	=25	=25	=25	=25
*	*	*	*	*	*	*	*	*	*	*	*	*	*	*	*	*	*	*	*	*	*^	*	*	*	*	*	*	*	*	*	*	*	*	*	*	*	*	*	*	*	*	*
*	*	*tremolo	*	*	*	*	*	*	*	*	*	*	*	*	*	*	*	*	*	*	*	*	*	*	*	*	*	*	*	*	*	*	*	*	*	*	*	*	*	*	*	*	*
4Ra/	.	32Rcc\LLL	.	2AA-/	.	2A- 2E-\	.	2AA- 2AAA-/	.	(4.c^^\	.	2.A- 2.E-/	.	2.e-^^/	(4.c\	.	2.a- 2.e-^^/	.	(4.cc^^/	.	(4.cc^^/	2.a-\	.	2AA-/	2AA-\	.	(4.cc^^\	.	2.a-\	.	(4.cc^^/	2.a-\	.	2.aa-\	.	(4.ccc^^\	.	2.aa- 2.ee-\	.	(4.ccc^^\	.	(4.ccc^^\	.
.	.	32Rcc\	.	.	.	.	.	.	.	.	.	.	.	.	.	.	.	.	.	.	.	.	.	.	.	.	.	.	.	.	.	.	.	.	.	.	.	.	.	.	.	.	.
.	.	32Rcc\	.	.	.	.	.	.	.	.	.	.	.	.	.	.	.	.	.	.	.	.	.	.	.	.	.	.	.	.	.	.	.	.	.	.	.	.	.	.	.	.	.
.	.	32Rcc\	.	.	.	.	.	.	.	.	.	.	.	.	.	.	.	.	.	.	.	.	.	.	.	.	.	.	.	.	.	.	.	.	.	.	.	.	.	.	.	.	.
.	.	32Rcc\	.	.	.	.	.	.	.	.	.	.	.	.	.	.	.	.	.	.	.	.	.	.	.	.	.	.	.	.	.	.	.	.	.	.	.	.	.	.	.	.	.
.	.	32Rcc\	.	.	.	.	.	.	.	.	.	.	.	.	.	.	.	.	.	.	.	.	.	.	.	.	.	.	.	.	.	.	.	.	.	.	.	.	.	.	.	.	.
.	.	32Rcc\	.	.	.	.	.	.	.	.	.	.	.	.	.	.	.	.	.	.	.	.	.	.	.	.	.	.	.	.	.	.	.	.	.	.	.	.	.	.	.	.	.
.	.	32Rcc\	.	.	.	.	.	.	.	.	.	.	.	.	.	.	.	.	.	.	.	.	.	.	.	.	.	.	.	.	.	.	.	.	.	.	.	.	.	.	.	.	.
4r	.	32Rcc\	.	.	.	.	.	.	.	.	.	.	.	.	.	.	.	.	.	.	.	.	.	.	.	.	.	.	.	.	.	.	.	.	.	.	.	.	.	.	.	.	.
.	.	32Rcc\	.	.	.	.	.	.	.	.	.	.	.	.	.	.	.	.	.	.	.	.	.	.	.	.	.	.	.	.	.	.	.	.	.	.	.	.	.	.	.	.	.
.	.	32Rcc\	.	.	.	.	.	.	.	.	.	.	.	.	.	.	.	.	.	.	.	.	.	.	.	.	.	.	.	.	.	.	.	.	.	.	.	.	.	.	.	.	.
.	.	32Rcc\	.	.	.	.	.	.	.	.	.	.	.	.	.	.	.	.	.	.	.	.	.	.	.	.	.	.	.	.	.	.	.	.	.	.	.	.	.	.	.	.	.
.	.	32Rcc\	.	.	.	.	.	.	.	8d-\	.	.	.	.	8d-\	.	.	.	8dd-/	.	8dd-/	.	.	.	.	.	8dd-\	.	.	.	8dd-/	.	.	.	.	8ddd-\	.	.	.	8ddd-\	.	8ddd-\	.
.	.	32Rcc\	.	.	.	.	.	.	.	.	.	.	.	.	.	.	.	.	.	.	.	.	.	.	.	.	.	.	.	.	.	.	.	.	.	.	.	.	.	.	.	.	.
.	.	32Rcc\	.	.	.	.	.	.	.	.	.	.	.	.	.	.	.	.	.	.	.	.	.	.	.	.	.	.	.	.	.	.	.	.	.	.	.	.	.	.	.	.	.
.	.	32Rcc\JJJ	.	.	.	.	.	.	.	.	.	.	.	.	.	.	.	.	.	.	.	.	.	.	.	.	.	.	.	.	.	.	.	.	.	.	.	.	.	.	.	.	.
2r	.	8Rcc\	.	8AA-/L	.	4c 4E-\	.	8A-L 8AA-/	.	4c\)	.	.	.	.	4c\)	.	.	.	4cc/)	.	4cc/)	.	.	8AA-/L	8AA-\L	.	4cc\)	.	.	.	4cc/)	.	.	.	.	4ccc\)	.	.	.	4ccc\)	.	4ccc\)	.
.	.	8r	.	8GG/	.	.	.	8G 8GG/	.	.	.	.	.	.	.	.	.	.	.	.	.	.	.	8GG/	8GG\	.	.	.	.	.	.	.	.	.	.	.	.	.	.	.	.	.	.
.	.	4r	.	8FF/	.	4c 4A-\	.	8F 8FF/	.	4e-\	.	4c 4A-/	.	4a- 4e-\	4ryy	.	4cc 4a-/	.	4ee-\	.	4ee- 4e-\	4ryy	.	8FF/	8FF\	.	4cc\	.	4a-\	.	4ee-/	4cc\	.	4aa-\	.	4eee-\	.	4ccc 4aa-\	.	4eee-\	.	4eee-\	.
.	.	.	.	8EE-/J	.	.	.	8E-J 8EE-/	.	.	.	.	.	.	.	.	.	.	.	.	.	.	.	8EE-/J	8EE-\J	.	.	.	.	.	.	.	.	.	.	.	.	.	.	.	.	.	.
=26	=26	=26	=26	=26	=26	=26	=26	=26	=26	=26	=26	=26	=26	=26	=26	=26	=26	=26	=26	=26	=26	=26	=26	=26	=26	=26	=26	=26	=26	=26	=26	=26	=26	=26	=26	=26	=26	=26	=26	=26	=26	=26	=26
*	*	*	*	*	*	*^	*	*	*	*	*	*^	*	*	*	*	*^	*	*	*	*	*	*	*	*	*	*	*	*	*	*	*	*	*	*	*	*	*^	*	*	*	*	*
4Ra/	.	32Rcc\LLL	.	2FF/	.	2.d-/	(4.A-\	.	2F 2FF/	.	(4.A-\	.	2.d-/	(4.A-\	.	(4.a-/	2.d-\	.	2.d-/	2.d-\	.	(4.a-^^/	.	(4.a-^^/	2.d-\	.	2FF/	2FF\	.	2.dd-\	.	(4.a-^^\	.	2.dd-/	(4.a-\	.	(4.aa-\	.	(4.aa-^^\	.	2.dd-/	2.dd-\	.	(4.aa-^^\	.	(4.aa-^^\	.
.	.	32Rcc\	.	.	.	.	.	.	.	.	.	.	.	.	.	.	.	.	.	.	.	.	.	.	.	.	.	.	.	.	.	.	.	.	.	.	.	.	.	.	.	.	.	.	.	.	.
.	.	32Rcc\	.	.	.	.	.	.	.	.	.	.	.	.	.	.	.	.	.	.	.	.	.	.	.	.	.	.	.	.	.	.	.	.	.	.	.	.	.	.	.	.	.	.	.	.	.
.	.	32Rcc\	.	.	.	.	.	.	.	.	.	.	.	.	.	.	.	.	.	.	.	.	.	.	.	.	.	.	.	.	.	.	.	.	.	.	.	.	.	.	.	.	.	.	.	.	.
.	.	32Rcc\	.	.	.	.	.	.	.	.	.	.	.	.	.	.	.	.	.	.	.	.	.	.	.	.	.	.	.	.	.	.	.	.	.	.	.	.	.	.	.	.	.	.	.	.	.
.	.	32Rcc\	.	.	.	.	.	.	.	.	.	.	.	.	.	.	.	.	.	.	.	.	.	.	.	.	.	.	.	.	.	.	.	.	.	.	.	.	.	.	.	.	.	.	.	.	.
.	.	32Rcc\	.	.	.	.	.	.	.	.	.	.	.	.	.	.	.	.	.	.	.	.	.	.	.	.	.	.	.	.	.	.	.	.	.	.	.	.	.	.	.	.	.	.	.	.	.
.	.	32Rcc\	.	.	.	.	.	.	.	.	.	.	.	.	.	.	.	.	.	.	.	.	.	.	.	.	.	.	.	.	.	.	.	.	.	.	.	.	.	.	.	.	.	.	.	.	.
4r	.	32Rcc\	.	.	.	.	.	.	.	.	.	.	.	.	.	.	.	.	.	.	.	.	.	.	.	.	.	.	.	.	.	.	.	.	.	.	.	.	.	.	.	.	.	.	.	.	.
.	.	32Rcc\	.	.	.	.	.	.	.	.	.	.	.	.	.	.	.	.	.	.	.	.	.	.	.	.	.	.	.	.	.	.	.	.	.	.	.	.	.	.	.	.	.	.	.	.	.
.	.	32Rcc\	.	.	.	.	.	.	.	.	.	.	.	.	.	.	.	.	.	.	.	.	.	.	.	.	.	.	.	.	.	.	.	.	.	.	.	.	.	.	.	.	.	.	.	.	.
.	.	32Rcc\	.	.	.	.	.	.	.	.	.	.	.	.	.	.	.	.	.	.	.	.	.	.	.	.	.	.	.	.	.	.	.	.	.	.	.	.	.	.	.	.	.	.	.	.	.
.	.	32Rcc\	.	.	.	.	8B-\	.	.	.	8B-\	.	.	8B-\	.	8b-/	.	.	.	.	.	8b-/	.	8b-/	.	.	.	.	.	.	.	8b-\	.	.	8b-\	.	8bb-\	.	8bb-\	.	.	.	.	8bb-\	.	8bb-\	.
.	.	32Rcc\	.	.	.	.	.	.	.	.	.	.	.	.	.	.	.	.	.	.	.	.	.	.	.	.	.	.	.	.	.	.	.	.	.	.	.	.	.	.	.	.	.	.	.	.	.
.	.	32Rcc\	.	.	.	.	.	.	.	.	.	.	.	.	.	.	.	.	.	.	.	.	.	.	.	.	.	.	.	.	.	.	.	.	.	.	.	.	.	.	.	.	.	.	.	.	.
.	.	32Rcc\JJJ	.	.	.	.	.	.	.	.	.	.	.	.	.	.	.	.	.	.	.	.	.	.	.	.	.	.	.	.	.	.	.	.	.	.	.	.	.	.	.	.	.	.	.	.	.
2r	.	8Rcc\	.	8F\L	.	.	4A-\)	.	8FL 8FF/	.	4A-\)	.	.	4A-\)	.	4a-/)	.	.	.	.	.	4a-/)	.	4a-/)	.	.	8FL 8FF/	2ryy	.	.	.	4a-\)	.	.	4a-\)	.	4aa-\)	.	4aa-\)	.	.	.	.	4aa-\)	.	4aa-\)	.
.	.	8r	.	8E-\	.	.	.	.	8E- 8EE-/	.	.	.	.	.	.	.	.	.	.	.	.	.	.	.	.	.	8E- 8EE-/	.	.	.	.	.	.	.	.	.	.	.	.	.	.	.	.	.	.	.	.
.	.	4r	.	8D-\	.	8A-L 8F\	4ryy	.	8D- 8DD-/	.	(8d-\L	.	4A-/	4A-\	.	8fL 8d-\	4ryy	.	8a-L 8f/	4ryy	.	(8dd-\L	.	(8dd-L (8f/	4ryy	.	8D- 8DD-/	.	.	(8dd-\L	.	4a-\	.	(8dd-/L	8dd-\L	.	4aa-\	.	(8ddd-\L	.	8aa-L 8ff\	4ryy	.	(8ddd-\L	.	(8ddd-\L	.
.	.	.	.	8C\J	.	8cJ 8E-\	.	.	8CJ 8CC/	.	8e-\J	.	.	.	.	8a-J 8e-\	.	.	8a-J 8e-/	.	.	8ee-\J	.	8ee-J 8e-/	.	.	8CJ 8CC/	.	.	8ee-\J	.	.	.	8ee-/J	8ee-\J	.	.	.	8eee-\J	.	8aa-J 8ee-\	.	.	8eee-\J	.	8eee-\J	.
*	*	*	*	*	*	*	*	*	*	*	*	*	*v	*v	*	*	*	*	*v	*v	*	*	*	*v	*v	*	*	*	*	*	*	*	*	*v	*v	*	*	*	*	*	*v	*v	*	*	*	*	*
*	*	*	*	*	*	*v	*v	*	*	*	*	*	*	*	*v	*v	*	*	*	*	*	*	*	*	*	*	*	*	*	*	*	*	*	*	*	*	*	*	*	*	*	*
=27	=27	=27	=27	=27	=27	=27	=27	=27	=27	=27	=27	=27	=27	=27	=27	=27	=27	=27	=27	=27	=27	=27	=27	=27	=27	=27	=27	=27	=27	=27	=27	=27	=27	=27	=27	=27	=27	=27	=27	=27
4Ra/	.	32Rcc\LLL	.	2BB-^^/	.	2d- 2F^^\	.	2BB- 2BBB-^^/	.	2f\)	.	2d- 2A-^^/	.	2a- 2f^^\	.	2dd- 2a-^^/	.	2ff^^\)	.	2ff) 2f^^\)	.	2BB-^^/	2BB-\	.	2ff^^\)	.	2a-^^\	.	2ff 2dd-^^\)	.	2aa-^^\	.	2fff\)	.	2aa- 2dd-^^\	.	2fff\)	.	2fff\)	.
.	.	32Rcc\	.	.	.	.	.	.	.	.	.	.	.	.	.	.	.	.	.	.	.	.	.	.	.	.	.	.	.	.	.	.	.	.	.	.	.	.	.	.
.	.	32Rcc\	.	.	.	.	.	.	.	.	.	.	.	.	.	.	.	.	.	.	.	.	.	.	.	.	.	.	.	.	.	.	.	.	.	.	.	.	.	.
.	.	32Rcc\	.	.	.	.	.	.	.	.	.	.	.	.	.	.	.	.	.	.	.	.	.	.	.	.	.	.	.	.	.	.	.	.	.	.	.	.	.	.
.	.	32Rcc\	.	.	.	.	.	.	.	.	.	.	.	.	.	.	.	.	.	.	.	.	.	.	.	.	.	.	.	.	.	.	.	.	.	.	.	.	.	.
.	.	32Rcc\	.	.	.	.	.	.	.	.	.	.	.	.	.	.	.	.	.	.	.	.	.	.	.	.	.	.	.	.	.	.	.	.	.	.	.	.	.	.
.	.	32Rcc\	.	.	.	.	.	.	.	.	.	.	.	.	.	.	.	.	.	.	.	.	.	.	.	.	.	.	.	.	.	.	.	.	.	.	.	.	.	.
.	.	32Rcc\	.	.	.	.	.	.	.	.	.	.	.	.	.	.	.	.	.	.	.	.	.	.	.	.	.	.	.	.	.	.	.	.	.	.	.	.	.	.
4r	.	32Rcc\	.	.	.	.	.	.	.	.	.	.	.	.	.	.	.	.	.	.	.	.	.	.	.	.	.	.	.	.	.	.	.	.	.	.	.	.	.	.
.	.	32Rcc\	.	.	.	.	.	.	.	.	.	.	.	.	.	.	.	.	.	.	.	.	.	.	.	.	.	.	.	.	.	.	.	.	.	.	.	.	.	.
.	.	32Rcc\	.	.	.	.	.	.	.	.	.	.	.	.	.	.	.	.	.	.	.	.	.	.	.	.	.	.	.	.	.	.	.	.	.	.	.	.	.	.
.	.	32Rcc\	.	.	.	.	.	.	.	.	.	.	.	.	.	.	.	.	.	.	.	.	.	.	.	.	.	.	.	.	.	.	.	.	.	.	.	.	.	.
.	.	32Rcc\	.	.	.	.	.	.	.	.	.	.	.	.	.	.	.	.	.	.	.	.	.	.	.	.	.	.	.	.	.	.	.	.	.	.	.	.	.	.
.	.	32Rcc\	.	.	.	.	.	.	.	.	.	.	.	.	.	.	.	.	.	.	.	.	.	.	.	.	.	.	.	.	.	.	.	.	.	.	.	.	.	.
.	.	32Rcc\	.	.	.	.	.	.	.	.	.	.	.	.	.	.	.	.	.	.	.	.	.	.	.	.	.	.	.	.	.	.	.	.	.	.	.	.	.	.
.	.	32Rcc\	.	.	.	.	.	.	.	.	.	.	.	.	.	.	.	.	.	.	.	.	.	.	.	.	.	.	.	.	.	.	.	.	.	.	.	.	.	.
4Ra/	.	32Rcc\	.	2E-^^\	.	2d- 2G^^\	.	2E- 2EE-^^/	.	2G^^\	.	2d- 2G^^/	.	2g 2e-^^\	.	2e- 2d-^^/	.	2g^^/	.	2g 2d-^^/	.	2E- 2EE-^^/	2ryy	.	2dd-^^\	.	2g^^\	.	2ee- 2dd-^^\	.	2gg^^\	.	2gg^^\	.	2ee- 2dd-^^\	.	2ggg^^\	.	2gg^^\	.
.	.	32Rcc\	.	.	.	.	.	.	.	.	.	.	.	.	.	.	.	.	.	.	.	.	.	.	.	.	.	.	.	.	.	.	.	.	.	.	.	.	.	.
.	.	32Rcc\	.	.	.	.	.	.	.	.	.	.	.	.	.	.	.	.	.	.	.	.	.	.	.	.	.	.	.	.	.	.	.	.	.	.	.	.	.	.
.	.	32Rcc\	.	.	.	.	.	.	.	.	.	.	.	.	.	.	.	.	.	.	.	.	.	.	.	.	.	.	.	.	.	.	.	.	.	.	.	.	.	.
.	.	32Rcc\	.	.	.	.	.	.	.	.	.	.	.	.	.	.	.	.	.	.	.	.	.	.	.	.	.	.	.	.	.	.	.	.	.	.	.	.	.	.
.	.	32Rcc\	.	.	.	.	.	.	.	.	.	.	.	.	.	.	.	.	.	.	.	.	.	.	.	.	.	.	.	.	.	.	.	.	.	.	.	.	.	.
.	.	32Rcc\	.	.	.	.	.	.	.	.	.	.	.	.	.	.	.	.	.	.	.	.	.	.	.	.	.	.	.	.	.	.	.	.	.	.	.	.	.	.
.	.	32Rcc\	.	.	.	.	.	.	.	.	.	.	.	.	.	.	.	.	.	.	.	.	.	.	.	.	.	.	.	.	.	.	.	.	.	.	.	.	.	.
4r	.	32Rcc\	.	.	.	.	.	.	.	.	.	.	.	.	.	.	.	.	.	.	.	.	.	.	.	.	.	.	.	.	.	.	.	.	.	.	.	.	.	.
.	.	32Rcc\	.	.	.	.	.	.	.	.	.	.	.	.	.	.	.	.	.	.	.	.	.	.	.	.	.	.	.	.	.	.	.	.	.	.	.	.	.	.
.	.	32Rcc\	.	.	.	.	.	.	.	.	.	.	.	.	.	.	.	.	.	.	.	.	.	.	.	.	.	.	.	.	.	.	.	.	.	.	.	.	.	.
.	.	32Rcc\	.	.	.	.	.	.	.	.	.	.	.	.	.	.	.	.	.	.	.	.	.	.	.	.	.	.	.	.	.	.	.	.	.	.	.	.	.	.
.	.	32Rcc\	.	.	.	.	.	.	.	.	.	.	.	.	.	.	.	.	.	.	.	.	.	.	.	.	.	.	.	.	.	.	.	.	.	.	.	.	.	.
.	.	32Rcc\	.	.	.	.	.	.	.	.	.	.	.	.	.	.	.	.	.	.	.	.	.	.	.	.	.	.	.	.	.	.	.	.	.	.	.	.	.	.
.	.	32Rcc\	.	.	.	.	.	.	.	.	.	.	.	.	.	.	.	.	.	.	.	.	.	.	.	.	.	.	.	.	.	.	.	.	.	.	.	.	.	.
.	.	32Rcc\JJJ	.	.	.	.	.	.	.	.	.	.	.	.	.	.	.	.	.	.	.	.	.	.	.	.	.	.	.	.	.	.	.	.	.	.	.	.	.	.
*	*	*Xtremolo	*	*	*	*	*	*	*	*	*	*	*	*	*	*	*	*	*	*	*	*	*	*	*	*	*	*	*	*	*	*	*	*	*	*	*	*	*	*
=28	=28	=28	=28	=28	=28	=28	=28	=28	=28	=28	=28	=28	=28	=28	=28	=28	=28	=28	=28	=28	=28	=28	=28	=28	=28	=28	=28	=28	=28	=28	=28	=28	=28	=28	=28	=28	=28	=28	=28	=28
4Ra/	.	8Rcc\L	.	4AA-^^/	.	[2c 2A-^^\	.	4AA- 4AAA-^^/	.	[2A-^^\	.	[2c [2E-^^/	.	[2a- [2e-^^\	.	[2e- [2c^^/	.	[2a-^^/	.	[2a- [2c^^/	.	4AA-^^/	4AA-\	.	[2cc^^\	.	[2a-^^\	.	[2ee- [2cc^^\	.	[2aa-^^\	.	[2aa-^^\	.	[2ee- [2cc^^\	.	[2aaa-^^\	.	[2aa-^^\	.
.	.	16Rcc\L	.	.	.	.	.	.	.	.	.	.	.	.	.	.	.	.	.	.	.	.	.	.	.	.	.	.	.	.	.	.	.	.	.	.	.	.	.	.
.	.	16Rcc\JJ	.	.	.	.	.	.	.	.	.	.	.	.	.	.	.	.	.	.	.	.	.	.	.	.	.	.	.	.	.	.	.	.	.	.	.	.	.	.
4r	.	8Rcc\L	.	8.EE-/L	.	.	.	8.E-L 8.EE-/	.	.	.	.	.	.	.	.	.	.	.	.	.	8.EE-/L	4ryy	.	.	.	.	.	.	.	.	.	.	.	.	.	.	.	.	.
.	.	8Rcc\J	.	.	.	.	.	.	.	.	.	.	.	.	.	.	.	.	.	.	.	.	.	.	.	.	.	.	.	.	.	.	.	.	.	.	.	.	.	.
.	.	.	.	16EE-/Jk	.	.	.	16E-Jk 16EE-/	.	.	.	.	.	.	.	.	.	.	.	.	.	16EE-/Jk	.	.	.	.	.	.	.	.	.	.	.	.	.	.	.	.	.	.
8Ra/	.	8Rcc\	.	8AA-/	.	8c] 8E-\	.	8AA- 8AAA-/	.	8A-\]	.	8c] 8E-/]	.	8a-] 8e-\]	.	8e-] 8c/]	.	8a-/]	.	8a-] 8c/]	.	8AA-/	8AA-\	.	8cc\]	.	8a-\]	.	8ee-] 8cc\]	.	8aa-\]	.	8aa-\]	.	8ee-] 8cc\]	.	8aaa-\]	.	8aa-\]	.
8r	.	8r	.	8r	.	8r	.	8r	.	8r	.	8r	.	8r	.	8r	.	8r	.	8r	.	8r	8ryy	.	8r	.	8r	.	8r	.	8r	.	8r	.	8r	.	8r	.	8r	.
*	*	*	*	*	*	*	*	*	*	*	*	*	*	*	*	*	*	*	*	*	*	*v	*v	*	*	*	*	*	*	*	*	*	*	*	*	*	*	*	*	*
=:|!	=:|!	=:|!	=:|!	=:|!	=:|!	=:|!	=:|!	=:|!	=:|!	=:|!	=:|!	=:|!	=:|!	=:|!	=:|!	=:|!	=:|!	=:|!	=:|!	=:|!	=:|!	=:|!	=:|!	=:|!	=:|!	=:|!	=:|!	=:|!	=:|!	=:|!	=:|!	=:|!	=:|!	=:|!	=:|!	=:|!	=:|!	=:|!	=:|!
*-	*-	*-	*-	*-	*-	*-	*-	*-	*-	*-	*-	*-	*-	*-	*-	*-	*-	*-	*-	*-	*-	*-	*-	*-	*-	*-	*-	*-	*-	*-	*-	*-	*-	*-	*-	*-	*-	*-	*-
!!!system-decoration: ([s1,s2]s3,s4[s5,s6][s7,s8]s9,s10[s11,s12]{g1}s15,s16{s17,s18}s19,s20)
!!!RDF**kern: > = above
!!!RDF**kern: < = below
!!!ENC: Tomasz Grochalski
!!!END: 2021-05-15
!!!ENC: Marta Lawrence
!!!END: 2021-05-28
